; generated by Slic3r 1.0.0RC2 on 2014-01-02 at 13:59:51

; layer_height = 0.4
; perimeters = 3
; top_solid_layers = 3
; bottom_solid_layers = 3
; fill_density = 0.4
; perimeter_speed = 30
; infill_speed = 60
; travel_speed = 130
; nozzle_diameter = 0.5
; filament_diameter = 3
; extrusion_multiplier = 1
; perimeters extrusion width = 0.50mm
; infill extrusion width = 0.53mm
; solid infill extrusion width = 0.53mm
; top infill extrusion width = 0.53mm
; first layer extrusion width = 0.70mm

G21 ; set units to millimeters
M107
M104 S200 ; set temperature
G28 ; home all axes
G1 Z5 F5000 ; lift nozzle

M109 S200 ; wait for temperature to be reached
G90 ; use absolute coordinates
G92 E0
M82 ; use absolute distances for extrusion
G1 F1800.000 E-1.00000
G92 E0
G1 Z0.350 F7800.000
G1 X87.790 Y87.790 F7800.000
G1 E1.00000 F1800.000
G1 X88.800 Y86.960 E1.04253 F540.000
G1 X89.950 Y86.350 E1.08489
G1 X91.200 Y85.970 E1.12739
G1 X92.500 Y85.840 E1.16990
G1 X107.500 Y85.840 E1.65793
G1 X108.800 Y85.970 E1.70043
G1 X110.050 Y86.350 E1.74294
G1 X111.200 Y86.960 E1.78529
G1 X112.210 Y87.790 E1.82783
G1 X113.040 Y88.800 E1.87036
G1 X113.650 Y89.950 E1.91271
G1 X114.030 Y91.200 E1.95522
G1 X114.160 Y92.500 E1.99773
G1 X114.160 Y107.500 E2.48576
G1 X114.030 Y108.800 E2.52826
G1 X113.650 Y110.050 E2.57077
G1 X113.040 Y111.200 E2.61312
G1 X112.210 Y112.210 E2.65565
G1 X111.200 Y113.040 E2.69819
G1 X110.050 Y113.650 E2.74054
G1 X108.800 Y114.030 E2.78305
G1 X107.500 Y114.160 E2.82555
G1 X92.500 Y114.160 E3.31358
G1 X91.200 Y114.030 E3.35609
G1 X89.950 Y113.650 E3.39860
G1 X88.800 Y113.040 E3.44095
G1 X87.790 Y112.210 E3.48348
G1 X86.960 Y111.200 E3.52602
G1 X86.350 Y110.050 E3.56837
G1 X85.970 Y108.800 E3.61088
G1 X85.840 Y107.500 E3.65338
G1 X85.840 Y92.500 E4.14141
G1 X85.970 Y91.200 E4.18392
G1 X86.350 Y89.950 E4.22642
G1 X86.960 Y88.800 E4.26878
G1 X87.727 Y87.866 E4.30810
G1 F1800.000 E3.30810
G92 E0
G1 X94.650 Y94.650 F7800.000
G1 E1.00000 F1800.000
G1 X105.350 Y94.650 E1.34813 F378.000
G1 X105.350 Y105.350 E1.69625
G1 X94.650 Y105.350 E2.04438
G1 X94.650 Y94.749 E2.38930
G1 X94.650 Y93.993 F7800.000
G1 X92.850 Y92.850 F7800.000
G1 X107.150 Y92.850 E2.85455 F378.000
G1 X107.150 Y107.150 E3.31981
G1 X92.850 Y107.150 E3.78506
G1 X92.850 Y92.949 E4.24711
G1 X93.419 Y93.179 F7800.000
G1 X93.974 Y93.495 F7800.000
G1 X94.485 Y94.005 E4.27135 F360.000
G1 X94.933 Y93.495 E4.29416 F360.000
G1 X95.443 Y94.005 E4.31840 F360.000
G1 X95.891 Y93.495 E4.34121 F360.000
G1 X96.402 Y94.005 E4.36545 F360.000
G1 X96.850 Y93.495 E4.38826 F360.000
G1 X97.361 Y94.005 E4.41250 F360.000
G1 X97.809 Y93.495 E4.43531 F360.000
G1 X98.320 Y94.005 E4.45955 F360.000
G1 X98.768 Y93.495 E4.48236 F360.000
G1 X99.278 Y94.005 E4.50660 F360.000
G1 X99.726 Y93.495 E4.52941 F360.000
G1 X100.237 Y94.005 E4.55365 F360.000
G1 X100.685 Y93.495 E4.57645 F360.000
G1 X101.196 Y94.005 E4.60070 F360.000
G1 X101.644 Y93.495 E4.62350 F360.000
G1 X102.155 Y94.005 E4.64775 F360.000
G1 X102.603 Y93.495 E4.67055 F360.000
G1 X103.113 Y94.005 E4.69480 F360.000
G1 X103.561 Y93.495 E4.71760 F360.000
G1 X104.072 Y94.005 E4.74185 F360.000
G1 X104.520 Y93.495 E4.76465 F360.000
G1 X105.031 Y94.005 E4.78890 F360.000
G1 X105.479 Y93.495 E4.81170 F360.000
G1 X105.990 Y94.005 E4.83595 F360.000
G1 X105.995 Y94.010 E4.83619 F360.000
G1 X106.505 Y94.521 E4.86043 F360.000
G1 X105.995 Y94.969 E4.88324 F360.000
G1 X106.505 Y95.480 E4.90748 F360.000
G1 X105.995 Y95.928 E4.93029 F360.000
G1 X106.505 Y96.439 E4.95453 F360.000
G1 X105.995 Y96.887 E4.97734 F360.000
G1 X106.505 Y97.397 E5.00158 F360.000
G1 X105.995 Y97.845 E5.02439 F360.000
G1 X106.505 Y98.356 E5.04863 F360.000
G1 X105.995 Y98.804 E5.07144 F360.000
G1 X106.505 Y99.315 E5.09568 F360.000
G1 X105.995 Y99.763 E5.11848 F360.000
G1 X106.505 Y100.274 E5.14273 F360.000
G1 X105.995 Y100.722 E5.16553 F360.000
G1 X106.505 Y101.232 E5.18978 F360.000
G1 X105.995 Y101.680 E5.21258 F360.000
G1 X106.505 Y102.191 E5.23683 F360.000
G1 X105.995 Y102.639 E5.25963 F360.000
G1 X106.505 Y103.150 E5.28388 F360.000
G1 X105.995 Y103.598 E5.30668 F360.000
G1 X106.505 Y104.109 E5.33093 F360.000
G1 X105.995 Y104.557 E5.35373 F360.000
G1 X106.505 Y105.067 E5.37798 F360.000
G1 X105.995 Y105.515 E5.40078 F360.000
G1 X106.505 Y106.026 E5.42503 F360.000
G1 X106.026 Y106.505 E5.44778 F360.000
G1 X105.515 Y105.995 E5.47203 F360.000
G1 X105.067 Y106.505 E5.49483 F360.000
G1 X104.557 Y105.995 E5.51908 F360.000
G1 X104.109 Y106.505 E5.54188 F360.000
G1 X103.598 Y105.995 E5.56613 F360.000
G1 X103.150 Y106.505 E5.58893 F360.000
G1 X102.639 Y105.995 E5.61318 F360.000
G1 X102.191 Y106.505 E5.63598 F360.000
G1 X101.680 Y105.995 E5.66023 F360.000
G1 X101.232 Y106.505 E5.68303 F360.000
G1 X100.722 Y105.995 E5.70728 F360.000
G1 X100.274 Y106.505 E5.73008 F360.000
G1 X99.763 Y105.995 E5.75432 F360.000
G1 X99.315 Y106.505 E5.77713 F360.000
G1 X98.804 Y105.995 E5.80137 F360.000
G1 X98.356 Y106.505 E5.82418 F360.000
G1 X97.845 Y105.995 E5.84842 F360.000
G1 X97.397 Y106.505 E5.87123 F360.000
G1 X96.887 Y105.995 E5.89547 F360.000
G1 X96.439 Y106.505 E5.91828 F360.000
G1 X95.928 Y105.995 E5.94252 F360.000
G1 X95.480 Y106.505 E5.96533 F360.000
G1 X94.969 Y105.995 E5.98957 F360.000
G1 X94.521 Y106.505 E6.01238 F360.000
G1 X94.010 Y105.995 E6.03662 F360.000
G1 X94.005 Y105.990 F7800.000
G1 X93.495 Y105.479 E6.06087 F360.000
G1 X94.005 Y105.031 E6.08367 F360.000
G1 X93.495 Y104.520 E6.10792 F360.000
G1 X94.005 Y104.072 E6.13072 F360.000
G1 X93.495 Y103.561 E6.15497 F360.000
G1 X94.005 Y103.113 E6.17777 F360.000
G1 X93.495 Y102.603 E6.20202 F360.000
G1 X94.005 Y102.155 E6.22482 F360.000
G1 X93.495 Y101.644 E6.24907 F360.000
G1 X94.005 Y101.196 E6.27187 F360.000
G1 X93.495 Y100.685 E6.29611 F360.000
G1 X94.005 Y100.237 E6.31892 F360.000
G1 X93.495 Y99.726 E6.34316 F360.000
G1 X94.005 Y99.278 E6.36597 F360.000
G1 X93.495 Y98.768 E6.39021 F360.000
G1 X94.005 Y98.320 E6.41302 F360.000
G1 X93.495 Y97.809 E6.43726 F360.000
G1 X94.005 Y97.361 E6.46007 F360.000
G1 X93.495 Y96.850 E6.48431 F360.000
G1 X94.005 Y96.402 E6.50712 F360.000
G1 X93.495 Y95.891 E6.53136 F360.000
G1 X94.005 Y95.443 E6.55417 F360.000
G1 X93.495 Y94.933 E6.57841 F360.000
G1 X94.005 Y94.485 E6.60122 F360.000
G1 X93.495 Y93.974 E6.62546 F360.000
G1 X93.974 Y93.495 E6.64822 F360.000
G1 X106.438 Y93.495 F7800.000
G1 X106.505 Y93.562 E6.65143 F360.000
G1 F1800.000 E5.65143
G92 E0
G1 X94.005 Y105.990 F7800.000
G1 E1.00000 F1800.000
G1 X93.495 Y106.438 E1.02281 F360.000
G1 X93.562 Y106.505 E1.02602 F360.000
M106 S255
G1 F1800.000 E0.02602
G92 E0
G1 Z0.750 F7800.000
G1 X94.250 Y105.750 F7800.000
G1 E1.00000 F1800.000
G1 X94.250 Y94.250 E1.32538 F636.822
G1 X105.750 Y94.250 E1.65077
G1 X105.750 Y105.750 E1.97615
G1 X94.325 Y105.750 E2.29941
G1 X94.750 Y105.250 F7800.000
G1 X94.750 Y94.750 E2.59650 F600.000
G1 X105.250 Y94.750 E2.89359
G1 X105.250 Y105.250 E3.19068
G1 X94.825 Y105.250 E3.48565
G1 X94.250 Y105.250 F7800.000
G1 X93.250 Y106.750 F7800.000
G1 X93.250 Y93.250 E3.86762 F636.822
G1 X106.750 Y93.250 E4.24959
G1 X106.750 Y106.750 E4.63156
G1 X93.325 Y106.750 E5.01141
G1 X92.750 Y107.250 F7800.000
G1 X92.750 Y92.750 E5.42168 F600.000
G1 X107.250 Y92.750 E5.83194
G1 X107.250 Y107.250 E6.24221
G1 X92.825 Y107.250 E6.65035
G1 X93.000 Y106.817 F7800.000
G1 X93.725 Y105.918 F7800.000
G1 X93.775 Y105.868 E6.65240 F600.000
G1 X93.725 Y105.204 E6.67142 F600.000
G1 X93.775 Y105.153 E6.67346 F600.000
G1 X93.725 Y104.490 E6.69249 F600.000
G1 X93.775 Y104.439 E6.69453 F600.000
G1 X93.725 Y103.775 E6.71356 F600.000
G1 X93.775 Y103.725 E6.71560 F600.000
G1 X93.725 Y103.061 E6.73463 F600.000
G1 X93.775 Y103.010 E6.73667 F600.000
G1 X93.725 Y102.347 E6.75570 F600.000
G1 X93.775 Y102.296 E6.75774 F600.000
G1 X93.725 Y101.632 E6.77676 F600.000
G1 X93.775 Y101.582 E6.77880 F600.000
G1 X93.725 Y100.918 E6.79783 F600.000
G1 X93.775 Y100.868 E6.79987 F600.000
G1 X93.725 Y100.204 E6.81890 F600.000
G1 X93.775 Y100.153 E6.82094 F600.000
G1 X93.725 Y99.490 E6.83997 F600.000
G1 X93.775 Y99.439 E6.84201 F600.000
G1 X93.725 Y98.775 E6.86104 F600.000
G1 X93.775 Y98.725 E6.86308 F600.000
G1 X93.725 Y98.061 E6.88210 F600.000
G1 X93.775 Y98.010 E6.88415 F600.000
G1 X93.725 Y97.347 E6.90317 F600.000
G1 X93.775 Y97.296 E6.90521 F600.000
G1 X93.725 Y96.632 E6.92424 F600.000
G1 X93.775 Y96.582 E6.92628 F600.000
G1 X93.725 Y95.918 E6.94531 F600.000
G1 X93.775 Y95.868 E6.94735 F600.000
G1 X93.725 Y95.204 E6.96638 F600.000
G1 X93.775 Y95.153 E6.96842 F600.000
G1 X93.725 Y94.490 E6.98744 F600.000
G1 X93.775 Y94.439 E6.98949 F600.000
G1 X93.725 Y93.775 E7.00851 F600.000
G1 X93.775 Y93.725 E7.01055 F600.000
G1 X94.439 Y93.775 E7.02958 F600.000
G1 X94.490 Y93.725 E7.03162 F600.000
G1 X95.153 Y93.775 E7.05065 F600.000
G1 X95.204 Y93.725 E7.05269 F600.000
G1 X95.868 Y93.775 E7.07172 F600.000
G1 X95.918 Y93.725 E7.07376 F600.000
G1 X96.582 Y93.775 E7.09279 F600.000
G1 X96.632 Y93.725 E7.09483 F600.000
G1 X97.296 Y93.775 E7.11385 F600.000
G1 X97.347 Y93.725 E7.11590 F600.000
G1 X98.010 Y93.775 E7.13492 F600.000
G1 X98.061 Y93.725 E7.13696 F600.000
G1 X98.725 Y93.775 E7.15599 F600.000
G1 X98.775 Y93.725 E7.15803 F600.000
G1 X99.439 Y93.775 E7.17706 F600.000
G1 X99.490 Y93.725 E7.17910 F600.000
G1 X100.153 Y93.775 E7.19813 F600.000
G1 X100.204 Y93.725 E7.20017 F600.000
G1 X100.868 Y93.775 E7.21919 F600.000
G1 X100.918 Y93.725 E7.22124 F600.000
G1 X101.582 Y93.775 E7.24026 F600.000
G1 X101.632 Y93.725 E7.24230 F600.000
G1 X102.296 Y93.775 E7.26133 F600.000
G1 X102.347 Y93.725 E7.26337 F600.000
G1 X103.010 Y93.775 E7.28240 F600.000
G1 X103.061 Y93.725 E7.28444 F600.000
G1 X103.725 Y93.775 E7.30347 F600.000
G1 X103.775 Y93.725 E7.30551 F600.000
G1 X104.439 Y93.775 E7.32454 F600.000
G1 X104.490 Y93.725 E7.32658 F600.000
G1 X105.153 Y93.775 E7.34560 F600.000
G1 X105.204 Y93.725 E7.34765 F600.000
G1 X105.868 Y93.775 E7.36667 F600.000
G1 X105.918 Y93.725 E7.36871 F600.000
G1 X106.275 Y94.082 E7.38315 F600.000
G1 X106.225 Y94.132 E7.38519 F600.000
G1 X106.275 Y94.796 E7.40422 F600.000
G1 X106.225 Y94.847 E7.40626 F600.000
G1 X106.275 Y95.510 E7.42529 F600.000
G1 X106.225 Y95.561 E7.42733 F600.000
G1 X106.275 Y96.225 E7.44635 F600.000
G1 X106.225 Y96.275 E7.44840 F600.000
G1 X106.275 Y96.939 E7.46742 F600.000
G1 X106.225 Y96.990 E7.46946 F600.000
G1 X106.275 Y97.653 E7.48849 F600.000
G1 X106.225 Y97.704 E7.49053 F600.000
G1 X106.275 Y98.368 E7.50956 F600.000
G1 X106.225 Y98.418 E7.51160 F600.000
G1 X106.275 Y99.082 E7.53063 F600.000
G1 X106.225 Y99.132 E7.53267 F600.000
G1 X106.275 Y99.796 E7.55169 F600.000
G1 X106.225 Y99.847 E7.55374 F600.000
G1 X106.275 Y100.510 E7.57276 F600.000
G1 X106.225 Y100.561 E7.57480 F600.000
G1 X106.275 Y101.225 E7.59383 F600.000
G1 X106.225 Y101.275 E7.59587 F600.000
G1 X106.275 Y101.939 E7.61490 F600.000
G1 X106.225 Y101.990 E7.61694 F600.000
G1 X106.275 Y102.653 E7.63597 F600.000
G1 X106.225 Y102.704 E7.63801 F600.000
G1 X106.275 Y103.368 E7.65704 F600.000
G1 X106.225 Y103.418 E7.65908 F600.000
G1 X106.275 Y104.082 E7.67810 F600.000
G1 X106.225 Y104.132 E7.68015 F600.000
G1 X106.275 Y104.796 E7.69917 F600.000
G1 X106.225 Y104.847 E7.70121 F600.000
G1 X106.275 Y105.510 E7.72024 F600.000
G1 X106.225 Y105.561 E7.72228 F600.000
G1 X106.275 Y106.225 F7800.000
G1 X106.225 Y106.275 E7.72432 F600.000
G1 X105.561 Y106.225 E7.74335 F600.000
G1 X105.510 Y106.275 E7.74539 F600.000
G1 X104.847 Y106.225 E7.76442 F600.000
G1 X104.796 Y106.275 E7.76646 F600.000
G1 X104.132 Y106.225 E7.78549 F600.000
G1 X104.082 Y106.275 E7.78753 F600.000
G1 X103.418 Y106.225 E7.80655 F600.000
G1 X103.368 Y106.275 E7.80860 F600.000
G1 X102.704 Y106.225 E7.82762 F600.000
G1 X102.653 Y106.275 E7.82966 F600.000
G1 X101.990 Y106.225 E7.84869 F600.000
G1 X101.939 Y106.275 E7.85073 F600.000
G1 X101.275 Y106.225 E7.86976 F600.000
G1 X101.225 Y106.275 E7.87180 F600.000
G1 X100.561 Y106.225 E7.89083 F600.000
G1 X100.510 Y106.275 E7.89287 F600.000
G1 X99.847 Y106.225 E7.91190 F600.000
G1 X99.796 Y106.275 E7.91394 F600.000
G1 X99.132 Y106.225 E7.93296 F600.000
G1 X99.082 Y106.275 E7.93500 F600.000
G1 X98.418 Y106.225 E7.95403 F600.000
G1 X98.368 Y106.275 E7.95607 F600.000
G1 X97.704 Y106.225 E7.97510 F600.000
G1 X97.653 Y106.275 E7.97714 F600.000
G1 X96.990 Y106.225 E7.99617 F600.000
G1 X96.939 Y106.275 E7.99821 F600.000
G1 X96.275 Y106.225 E8.01724 F600.000
G1 X96.225 Y106.275 E8.01928 F600.000
G1 X95.561 Y106.225 E8.03830 F600.000
G1 X95.510 Y106.275 E8.04035 F600.000
G1 X94.847 Y106.225 E8.05937 F600.000
G1 X94.796 Y106.275 E8.06141 F600.000
G1 X94.132 Y106.225 E8.08044 F600.000
G1 X94.082 Y106.275 E8.08248 F600.000
G1 X93.725 Y105.918 E8.09692 F600.000
G1 F1800.000 E7.09692
G92 E0
G1 Z1.150 F7800.000
G1 X94.250 Y105.750 F7800.000
G1 E1.00000 F1800.000
G1 X94.250 Y94.250 E1.32538 F636.822
G1 X105.750 Y94.250 E1.65077
G1 X105.750 Y105.750 E1.97615
G1 X94.325 Y105.750 E2.29941
G1 X94.750 Y105.250 F7800.000
G1 X94.750 Y94.750 E2.59650 F600.000
G1 X105.250 Y94.750 E2.89359
G1 X105.250 Y105.250 E3.19068
G1 X94.825 Y105.250 E3.48565
G1 X94.250 Y105.250 F7800.000
G1 X93.250 Y106.750 F7800.000
G1 X93.250 Y93.250 E3.86762 F636.822
G1 X106.750 Y93.250 E4.24959
G1 X106.750 Y106.750 E4.63156
G1 X93.325 Y106.750 E5.01141
G1 X92.750 Y107.250 F7800.000
G1 X92.750 Y92.750 E5.42168 F600.000
G1 X107.250 Y92.750 E5.83194
G1 X107.250 Y107.250 E6.24221
G1 X92.825 Y107.250 E6.65035
G1 X93.000 Y106.817 F7800.000
G1 X93.725 Y106.225 F7800.000
G1 X93.775 Y105.561 E6.66938 F600.000
G1 X93.725 Y105.510 E6.67142 F600.000
G1 X93.775 Y104.847 E6.69045 F600.000
G1 X93.725 Y104.796 E6.69249 F600.000
G1 X93.775 Y104.132 E6.71152 F600.000
G1 X93.725 Y104.082 E6.71356 F600.000
G1 X93.775 Y103.418 E6.73259 F600.000
G1 X93.725 Y103.368 E6.73463 F600.000
G1 X93.775 Y102.704 E6.75365 F600.000
G1 X93.725 Y102.653 E6.75570 F600.000
G1 X93.775 Y101.990 E6.77472 F600.000
G1 X93.725 Y101.939 E6.77676 F600.000
G1 X93.775 Y101.275 E6.79579 F600.000
G1 X93.725 Y101.225 E6.79783 F600.000
G1 X93.775 Y100.561 E6.81686 F600.000
G1 X93.725 Y100.510 E6.81890 F600.000
G1 X93.775 Y99.847 E6.83793 F600.000
G1 X93.725 Y99.796 E6.83997 F600.000
G1 X93.775 Y99.132 E6.85899 F600.000
G1 X93.725 Y99.082 E6.86104 F600.000
G1 X93.775 Y98.418 E6.88006 F600.000
G1 X93.725 Y98.368 E6.88210 F600.000
G1 X93.775 Y97.704 E6.90113 F600.000
G1 X93.725 Y97.653 E6.90317 F600.000
G1 X93.775 Y96.990 E6.92220 F600.000
G1 X93.725 Y96.939 E6.92424 F600.000
G1 X93.775 Y96.275 E6.94327 F600.000
G1 X93.725 Y96.225 E6.94531 F600.000
G1 X93.775 Y95.561 E6.96434 F600.000
G1 X93.725 Y95.510 E6.96638 F600.000
G1 X93.775 Y94.847 E6.98540 F600.000
G1 X93.725 Y94.796 E6.98744 F600.000
G1 X93.775 Y94.132 E7.00647 F600.000
G1 X93.725 Y94.082 E7.00851 F600.000
G1 X94.082 Y93.725 E7.02295 F600.000
G1 X94.132 Y93.775 E7.02499 F600.000
G1 X94.796 Y93.725 E7.04402 F600.000
G1 X94.847 Y93.775 E7.04606 F600.000
G1 X95.510 Y93.725 E7.06509 F600.000
G1 X95.561 Y93.775 E7.06713 F600.000
G1 X96.225 Y93.725 E7.08615 F600.000
G1 X96.275 Y93.775 E7.08819 F600.000
G1 X96.939 Y93.725 E7.10722 F600.000
G1 X96.990 Y93.775 E7.10926 F600.000
G1 X97.653 Y93.725 E7.12829 F600.000
G1 X97.704 Y93.775 E7.13033 F600.000
G1 X98.368 Y93.725 E7.14936 F600.000
G1 X98.418 Y93.775 E7.15140 F600.000
G1 X99.082 Y93.725 E7.17043 F600.000
G1 X99.132 Y93.775 E7.17247 F600.000
G1 X99.796 Y93.725 E7.19149 F600.000
G1 X99.847 Y93.775 E7.19354 F600.000
G1 X100.510 Y93.725 E7.21256 F600.000
G1 X100.561 Y93.775 E7.21460 F600.000
G1 X101.225 Y93.725 E7.23363 F600.000
G1 X101.275 Y93.775 E7.23567 F600.000
G1 X101.939 Y93.725 E7.25470 F600.000
G1 X101.990 Y93.775 E7.25674 F600.000
G1 X102.653 Y93.725 E7.27577 F600.000
G1 X102.704 Y93.775 E7.27781 F600.000
G1 X103.368 Y93.725 E7.29684 F600.000
G1 X103.418 Y93.775 E7.29888 F600.000
G1 X104.082 Y93.725 E7.31790 F600.000
G1 X104.132 Y93.775 E7.31994 F600.000
G1 X104.796 Y93.725 E7.33897 F600.000
G1 X104.847 Y93.775 E7.34101 F600.000
G1 X105.510 Y93.725 E7.36004 F600.000
G1 X105.561 Y93.775 E7.36208 F600.000
G1 X106.225 Y93.725 E7.38111 F600.000
