; generated by Slic3r 0.7.2b on 2014-02-28 at 20:40:06

; layer_height = 0.4
; perimeters = 3
; solid_layers = 3
; fill_density = 0.4
; nozzle_diameter = 0.5
; filament_diameter = 3
; extrusion_multiplier = 1
; perimeter_speed = 30
; infill_speed = 60
; travel_speed = 130
; extrusion_width_ratio = 0
; scale = 1
; single wall width = 0.53mm

M104 S200 ; set temperature
G28 ; home all axes
M109 S200 ; wait for temperature to be reached
G90 ; use absolute coordinates
G21 ; set units to millimeters
G92 E0 ; reset extrusion distance
M82 ; use absolute distances for extrusion
G1 Z0.400 F7800.000
G1 X80.930 Y81.110
G1 F1800.000 E1.00000
G1 X81.110 Y80.930 F540.000 E1.00749
G1 X81.490 Y80.590 E1.02248
G1 X82.110 Y80.150 E1.04483
G1 X82.330 Y80.020 E1.05235
G1 X82.790 Y79.790 E1.06747
G1 X83.260 Y79.600 E1.08238
G1 X83.750 Y79.450 E1.09745
G1 X84.000 Y79.390 E1.10501
G1 X84.750 Y79.280 E1.12730
G1 X85.260 Y79.260 E1.14231
G1 X115.240 Y79.280 E2.02388
G1 X115.990 Y79.390 E2.04617
G1 X116.490 Y79.520 E2.06136
G1 X116.970 Y79.690 E2.07633
G1 X117.430 Y79.900 E2.09120
G1 X117.660 Y80.020 E2.09883
G1 X117.880 Y80.150 E2.10634
G1 X118.500 Y80.590 E2.12870
G1 X118.880 Y80.930 E2.14369
G1 X119.060 Y81.110 E2.15118
G1 X119.400 Y81.490 E2.16617
G1 X119.840 Y82.110 E2.18853
G1 X119.970 Y82.330 E2.19604
G1 X120.200 Y82.790 E2.21117
G1 X120.390 Y83.260 E2.22607
G1 X120.540 Y83.750 E2.24114
G1 X120.600 Y84.000 E2.24870
G1 X120.710 Y84.750 E2.27099
G1 X120.710 Y115.240 E3.16756
G1 X120.600 Y115.990 E3.18985
G1 X120.470 Y116.490 E3.20504
G1 X120.300 Y116.970 E3.22002
G1 X120.090 Y117.430 E3.23489
G1 X119.970 Y117.660 E3.24251
G1 X119.840 Y117.880 E3.25003
G1 X119.400 Y118.500 E3.27238
G1 X119.060 Y118.880 E3.28738
G1 X118.880 Y119.060 E3.29486
G1 X118.500 Y119.400 E3.30986
G1 X117.880 Y119.840 E3.33221
G1 X117.660 Y119.970 E3.33973
G1 X117.200 Y120.200 E3.35485
G1 X116.730 Y120.390 E3.36976
G1 X116.240 Y120.540 E3.38483
G1 X115.990 Y120.600 E3.39239
G1 X115.240 Y120.710 E3.41468
G1 X114.730 Y120.730 E3.42968
G1 X84.750 Y120.710 E4.31126
G1 X84.000 Y120.600 E4.33355
G1 X83.500 Y120.470 E4.34874
G1 X83.020 Y120.300 E4.36371
G1 X82.560 Y120.090 E4.37858
G1 X82.330 Y119.970 E4.38621
G1 X82.110 Y119.840 E4.39372
G1 X81.490 Y119.400 E4.41608
G1 X81.110 Y119.060 E4.43107
G1 X80.930 Y118.880 E4.43856
G1 X80.590 Y118.500 E4.45355
G1 X80.150 Y117.880 E4.47591
G1 X80.020 Y117.660 E4.48342
G1 X79.790 Y117.200 E4.49854
G1 X79.600 Y116.730 E4.51345
G1 X79.450 Y116.240 E4.52852
G1 X79.390 Y115.990 E4.53608
G1 X79.280 Y115.240 E4.55837
G1 X79.280 Y84.750 E5.45494
G1 X79.390 Y84.000 E5.47723
G1 X79.520 Y83.500 E5.49242
G1 X79.690 Y83.020 E5.50739
G1 X79.900 Y82.560 E5.52226
G1 X80.020 Y82.330 E5.52989
G1 X80.150 Y82.110 E5.53741
G1 X80.590 Y81.490 E5.55976
G1 X80.877 Y81.169 E5.57244
G1 F1800.000 E4.57244
G92 E0
G1 X97.691 Y97.691 F7800.000
G1 F1800.000 E1.00000
G1 X98.368 Y97.173 F540.000 E1.02506
G1 X99.155 Y96.846 E1.05012
G1 X100.000 Y96.735 E1.07518
G1 X100.845 Y96.846 E1.10025
G1 X101.632 Y97.173 E1.12531
G1 X102.309 Y97.691 E1.15037
G1 X102.827 Y98.368 E1.17543
G1 X103.154 Y99.155 E1.20049
G1 X103.265 Y100.000 E1.22555
G1 X103.154 Y100.845 E1.25061
G1 X102.827 Y101.632 E1.27568
G1 X102.309 Y102.309 E1.30074
G1 X101.632 Y102.827 E1.32580
G1 X100.845 Y103.154 E1.35086
G1 X100.000 Y103.265 E1.37592
G1 X99.155 Y103.154 E1.40098
G1 X98.368 Y102.827 E1.42604
G1 X97.691 Y102.309 E1.45111
G1 X97.173 Y101.632 E1.47617
G1 X96.846 Y100.845 E1.50123
G1 X96.735 Y100.000 E1.52629
G1 X96.846 Y99.155 E1.55135
G1 X97.173 Y98.368 E1.57641
G1 X97.644 Y97.754 E1.59916
G1 X97.324 Y97.324 F7800.000
G1 X98.108 Y96.723 F540.000 E1.62821
G1 X99.021 Y96.345 E1.65726
G1 X100.000 Y96.216 E1.68631
G1 X100.979 Y96.345 E1.71536
G1 X101.892 Y96.723 E1.74441
G1 X102.676 Y97.324 E1.77346
G1 X103.277 Y98.108 E1.80251
G1 X103.655 Y99.021 E1.83156
G1 X103.784 Y100.000 E1.86061
G1 X103.655 Y100.979 E1.88966
G1 X103.277 Y101.892 E1.91871
G1 X102.676 Y102.676 E1.94776
G1 X101.892 Y103.277 E1.97681
G1 X100.979 Y103.655 E2.00586
G1 X100.000 Y103.784 E2.03491
G1 X99.021 Y103.655 E2.06396
G1 X98.108 Y103.277 E2.09301
G1 X97.324 Y102.676 E2.12206
G1 X96.723 Y101.892 E2.15111
G1 X96.345 Y100.979 E2.18016
G1 X96.216 Y100.000 E2.20921
G1 X96.345 Y99.021 E2.23826
G1 X96.723 Y98.108 E2.26731
G1 X97.276 Y97.387 E2.29405
G1 X96.957 Y96.957 F7800.000
G1 X97.848 Y96.273 F540.000 E2.32709
G1 X98.886 Y95.843 E2.36013
G1 X100.000 Y95.696 E2.39317
G1 X101.114 Y95.843 E2.42620
G1 X102.152 Y96.273 E2.45924
G1 X103.043 Y96.957 E2.49228
G1 X103.727 Y97.848 E2.52532
G1 X104.157 Y98.886 E2.55836
G1 X104.304 Y100.000 E2.59140
G1 X104.157 Y101.114 E2.62444
G1 X103.727 Y102.152 E2.65748
G1 X103.043 Y103.043 E2.69052
G1 X102.152 Y103.727 E2.72356
G1 X101.114 Y104.157 E2.75660
G1 X100.000 Y104.304 E2.78963
G1 X98.886 Y104.157 E2.82267
G1 X97.848 Y103.727 E2.85571
G1 X96.957 Y103.043 E2.88875
G1 X96.273 Y102.152 E2.92179
G1 X95.843 Y101.114 E2.95483
G1 X95.696 Y100.000 E2.98787
G1 X95.843 Y98.886 E3.02091
G1 X96.273 Y97.848 E3.05395
G1 X96.909 Y97.019 E3.08467
G1 F1800.000 E2.08467
G92 E0
G1 X86.293 Y86.293 F7800.000
G1 F1800.000 E1.00000
G1 X113.707 Y86.293 F540.000 E1.80613
G1 X113.707 Y113.707 E2.61225
G1 X86.293 Y113.707 E3.41838
G1 X86.293 Y86.372 E4.22219
G1 X85.778 Y85.778 F7800.000
G1 X114.222 Y85.778 F540.000 E5.05861
G1 X114.222 Y114.222 E5.89503
G1 X85.778 Y114.222 E6.73146
G1 X85.778 Y85.856 E7.56556
G1 X85.263 Y85.262 F7800.000
G1 X114.738 Y85.262 F540.000 E8.43229
G1 X114.738 Y114.737 E9.29901
G1 X85.263 Y114.737 E10.16573
G1 X85.263 Y85.341 E11.03014
G1 X86.660 Y87.026 F7800.000
G1 X96.578 Y96.945 F1080.000 E11.44722
G1 X96.945 Y96.578 F7800.000
G1 X87.026 Y86.660 F1080.000 E11.86431
G1 X87.760 Y86.660 F7800.000
G1 X97.360 Y96.260 F1080.000 E12.26800
G1 X97.785 Y95.951 F7800.000
G1 X88.494 Y86.660 F1080.000 E12.65870
G1 X89.228 Y86.660 F7800.000
G1 X98.304 Y95.736 F1080.000 E13.04037
G1 X98.823 Y95.521 F7800.000
G1 X89.962 Y86.660 F1080.000 E13.41300
G1 X90.695 Y86.660 F7800.000
G1 X99.452 Y95.417 F1080.000 E13.78123
G1 X100.101 Y95.331 F7800.000
G1 X91.429 Y86.660 F1080.000 E14.14587
G1 X92.163 Y86.660 F7800.000
G1 X100.931 Y95.428 F1080.000 E14.51458
G1 X101.960 Y95.722 F7800.000
G1 X92.897 Y86.660 F1080.000 E14.89567
G1 X93.631 Y86.660 F7800.000
G1 X113.340 Y106.369 F1080.000 E15.72447
G1 X113.340 Y105.636 F7800.000
G1 X94.365 Y86.660 F1080.000 E16.52241
G1 X95.098 Y86.660 F7800.000
G1 X113.340 Y104.902 F1080.000 E17.28950
G1 X113.340 Y104.168 F7800.000
G1 X95.832 Y86.660 F1080.000 E18.02573
G1 X96.566 Y86.660 F7800.000
G1 X113.340 Y103.434 F1080.000 E18.73110
G1 X113.340 Y102.700 F7800.000
G1 X97.300 Y86.660 F1080.000 E19.40562
G1 X98.034 Y86.660 F7800.000
G1 X113.340 Y101.966 F1080.000 E20.04927
G1 X113.340 Y101.233 F7800.000
G1 X98.767 Y86.660 F1080.000 E20.66207
G1 X99.501 Y86.660 F7800.000
G1 X113.340 Y100.499 F1080.000 E21.24402
G1 X113.340 Y99.765 F7800.000
G1 X100.235 Y86.660 F1080.000 E21.79511
G1 X100.969 Y86.660 F7800.000
G1 X113.340 Y99.031 F1080.000 E22.31534
G1 X113.340 Y98.297 F7800.000
G1 X101.703 Y86.660 F1080.000 E22.80472
G1 X102.436 Y86.660 F7800.000
G1 X113.340 Y97.564 F1080.000 E23.26323
G1 X113.340 Y96.830 F7800.000
G1 X103.170 Y86.660 F1080.000 E23.69090
G1 X103.904 Y86.660 F7800.000
G1 X113.340 Y96.096 F1080.000 E24.08770
G1 X113.340 Y95.362 F7800.000
G1 X104.638 Y86.660 F1080.000 E24.45365
G1 X105.372 Y86.660 F7800.000
G1 X113.340 Y94.628 F1080.000 E24.78874
G1 X113.340 Y93.895 F7800.000
G1 X106.105 Y86.660 F1080.000 E25.09298
G1 X106.839 Y86.660 F7800.000
G1 X113.340 Y93.161 F1080.000 E25.36636
G1 X113.340 Y92.427 F7800.000
G1 X107.573 Y86.660 F1080.000 E25.60888
G1 X108.307 Y86.660 F7800.000
G1 X113.340 Y91.693 F1080.000 E25.82054
G1 X113.340 Y90.959 F7800.000
G1 X109.041 Y86.660 F1080.000 E26.00135
G1 X109.774 Y86.660 F7800.000
G1 X113.340 Y90.226 F1080.000 E26.15131
G1 X113.340 Y89.492 F7800.000
G1 X110.508 Y86.660 F1080.000 E26.27040
G1 X111.242 Y86.660 F7800.000
G1 X113.340 Y88.758 F1080.000 E26.35864
G1 X113.340 Y88.024 F7800.000
G1 X111.976 Y86.660 F1080.000 E26.41602
G1 X112.710 Y86.660 F7800.000
G1 X113.340 Y87.290 F1080.000 E26.44254
G1 F1800.000 E25.44254
G92 E0
G1 X104.278 Y98.040 F7800.000
G1 F1800.000 E1.00000
G1 X113.340 Y107.103 F1080.000 E1.38109
G1 X113.340 Y107.837 F7800.000
G1 X104.572 Y99.069 F1080.000 E1.74980
G1 X104.669 Y99.899 F7800.000
G1 X113.340 Y108.571 F1080.000 E2.11444
G1 X113.340 Y109.305 F7800.000
G1 X104.583 Y100.548 F1080.000 E2.48267
G1 X104.479 Y101.177 F7800.000
G1 X113.340 Y110.038 F1080.000 E2.85530
G1 X113.340 Y110.772 F7800.000
G1 X104.264 Y101.696 F1080.000 E3.23697
G1 X104.049 Y102.215 F7800.000
G1 X113.340 Y111.506 F1080.000 E3.62768
G1 X113.340 Y112.240 F7800.000
G1 X103.740 Y102.640 F1080.000 E4.03137
G1 X103.422 Y103.055 F7800.000
G1 X113.340 Y112.974 F1080.000 E4.44845
G1 X112.974 Y113.340 F7800.000
G1 X103.055 Y103.422 F1080.000 E4.86554
G1 X102.640 Y103.740 F7800.000
G1 X112.240 Y113.340 F1080.000 E5.26923
G1 X111.506 Y113.340 F7800.000
G1 X102.215 Y104.049 F1080.000 E5.65993
G1 X101.696 Y104.264 F7800.000
G1 X110.772 Y113.340 F1080.000 E6.04160
G1 X110.038 Y113.340 F7800.000
G1 X101.177 Y104.479 F1080.000 E6.41423
G1 X100.548 Y104.583 F7800.000
G1 X109.305 Y113.340 F1080.000 E6.78246
G1 X108.571 Y113.340 F7800.000
G1 X99.899 Y104.669 F1080.000 E7.14710
G1 X99.069 Y104.572 F7800.000
G1 X107.837 Y113.340 F1080.000 E7.51581
G1 X107.103 Y113.340 F7800.000
G1 X98.040 Y104.278 F1080.000 E7.89690
G1 X95.722 Y101.960 F7800.000
G1 X86.660 Y92.897 F1080.000 E8.27800
G1 X86.660 Y93.631 F7800.000
G1 X106.369 Y113.340 F1080.000 E9.10679
G1 X105.636 Y113.340 F7800.000
G1 X86.660 Y94.365 F1080.000 E9.90473
G1 X86.660 Y95.098 F7800.000
G1 X104.902 Y113.340 F1080.000 E10.67182
G1 X104.168 Y113.340 F7800.000
G1 X86.660 Y95.832 F1080.000 E11.40805
G1 X86.660 Y96.566 F7800.000
G1 X103.434 Y113.340 F1080.000 E12.11342
G1 X102.700 Y113.340 F7800.000
G1 X86.660 Y97.300 F1080.000 E12.78794
G1 X86.660 Y98.034 F7800.000
G1 X101.966 Y113.340 F1080.000 E13.43160
G1 X101.233 Y113.340 F7800.000
G1 X86.660 Y98.767 F1080.000 E14.04440
G1 X86.660 Y99.501 F7800.000
G1 X100.499 Y113.340 F1080.000 E14.62634
G1 X99.765 Y113.340 F7800.000
G1 X86.660 Y100.235 F1080.000 E15.17743
G1 X86.660 Y100.969 F7800.000
G1 X99.031 Y113.340 F1080.000 E15.69766
G1 X98.297 Y113.340 F7800.000
G1 X86.660 Y101.703 F1080.000 E16.18704
G1 X86.660 Y102.436 F7800.000
G1 X97.564 Y113.340 F1080.000 E16.64556
G1 X96.830 Y113.340 F7800.000
G1 X86.660 Y103.170 F1080.000 E17.07322
G1 X86.660 Y103.904 F7800.000
G1 X96.096 Y113.340 F1080.000 E17.47003
G1 X95.362 Y113.340 F7800.000
G1 X86.660 Y104.638 F1080.000 E17.83597
G1 X86.660 Y105.372 F7800.000
G1 X94.628 Y113.340 F1080.000 E18.17106
G1 X93.895 Y113.340 F7800.000
G1 X86.660 Y106.105 F1080.000 E18.47530
G1 X86.660 Y106.839 F7800.000
G1 X93.161 Y113.340 F1080.000 E18.74868
G1 X92.427 Y113.340 F7800.000
G1 X86.660 Y107.573 F1080.000 E18.99120
G1 X86.660 Y108.307 F7800.000
G1 X91.693 Y113.340 F1080.000 E19.20287
G1 X90.959 Y113.340 F7800.000
G1 X86.660 Y109.041 F1080.000 E19.38367
G1 X86.660 Y109.774 F7800.000
G1 X90.226 Y113.340 F1080.000 E19.53363
G1 X89.492 Y113.340 F7800.000
G1 X86.660 Y110.508 F1080.000 E19.65272
G1 X86.660 Y111.242 F7800.000
G1 X88.758 Y113.340 F1080.000 E19.74096
G1 X88.024 Y113.340 F7800.000
G1 X86.660 Y111.976 F1080.000 E19.79834
G1 X86.660 Y112.710 F7800.000
G1 X87.290 Y113.340 F1080.000 E19.82487
G1 F1800.000 E18.82487
G92 E0
G1 X95.428 Y100.931 F7800.000
G1 F1800.000 E1.00000
G1 X86.660 Y92.163 F1080.000 E1.36871
G1 X86.660 Y91.429 F7800.000
G1 X95.331 Y100.101 F1080.000 E1.73335
G1 X95.417 Y99.452 F7800.000
G1 X86.660 Y90.695 F1080.000 E2.10158
G1 X86.660 Y89.962 F7800.000
G1 X95.521 Y98.823 F1080.000 E2.47421
G1 X95.736 Y98.304 F7800.000
G1 X86.660 Y89.228 F1080.000 E2.85588
G1 X86.660 Y88.494 F7800.000
G1 X95.951 Y97.785 F1080.000 E3.24658
G1 X96.260 Y97.360 F7800.000
G1 X86.660 Y87.760 F1080.000 E3.65027
G1 F1800.000 E2.65027
G92 E0
G1 Z0.800 F7800.000
G1 X97.691 Y97.691
G1 F1800.000 E1.00000
G1 X98.368 Y97.173 F1800.000 E1.02506
G1 X99.155 Y96.846 E1.05012
G1 X100.000 Y96.735 E1.07518
G1 X100.845 Y96.846 E1.10025
G1 X101.632 Y97.173 E1.12531
G1 X102.309 Y97.691 E1.15037
G1 X102.827 Y98.368 E1.17543
G1 X103.154 Y99.155 E1.20049
G1 X103.265 Y100.000 E1.22555
G1 X103.154 Y100.845 E1.25061
G1 X102.827 Y101.632 E1.27568
G1 X102.309 Y102.309 E1.30074
G1 X101.632 Y102.827 E1.32580
G1 X100.845 Y103.154 E1.35086
G1 X100.000 Y103.265 E1.37592
G1 X99.155 Y103.154 E1.40098
G1 X98.368 Y102.827 E1.42604
G1 X97.691 Y102.309 E1.45111
G1 X97.173 Y101.632 E1.47617
G1 X96.846 Y100.845 E1.50123
G1 X96.735 Y100.000 E1.52629
G1 X96.846 Y99.155 E1.55135
G1 X97.173 Y98.368 E1.57641
G1 X97.644 Y97.754 E1.59916
G1 X97.324 Y97.324 F7800.000
G1 X98.108 Y96.723 F1800.000 E1.62821
G1 X99.021 Y96.345 E1.65726
G1 X100.000 Y96.216 E1.68631
G1 X100.979 Y96.345 E1.71536
G1 X101.892 Y96.723 E1.74441
G1 X102.676 Y97.324 E1.77346
G1 X103.277 Y98.108 E1.80251
G1 X103.655 Y99.021 E1.83156
G1 X103.784 Y100.000 E1.86061
G1 X103.655 Y100.979 E1.88966
G1 X103.277 Y101.892 E1.91871
G1 X102.676 Y102.676 E1.94776
G1 X101.892 Y103.277 E1.97681
G1 X100.979 Y103.655 E2.00586
G1 X100.000 Y103.784 E2.03491
G1 X99.021 Y103.655 E2.06396
G1 X98.108 Y103.277 E2.09301
G1 X97.324 Y102.676 E2.12206
G1 X96.723 Y101.892 E2.15111
G1 X96.345 Y100.979 E2.18016
G1 X96.216 Y100.000 E2.20921
G1 X96.345 Y99.021 E2.23826
G1 X96.723 Y98.108 E2.26731
G1 X97.276 Y97.387 E2.29405
G1 X96.957 Y96.957 F7800.000
G1 X97.848 Y96.273 F1800.000 E2.32709
G1 X98.886 Y95.843 E2.36013
G1 X100.000 Y95.696 E2.39317
G1 X101.114 Y95.843 E2.42620
G1 X102.152 Y96.273 E2.45924
G1 X103.043 Y96.957 E2.49228
G1 X103.727 Y97.848 E2.52532
G1 X104.157 Y98.886 E2.55836
G1 X104.304 Y100.000 E2.59140
G1 X104.157 Y101.114 E2.62444
G1 X103.727 Y102.152 E2.65748
G1 X103.043 Y103.043 E2.69052
G1 X102.152 Y103.727 E2.72356
G1 X101.114 Y104.157 E2.75660
G1 X100.000 Y104.304 E2.78963
G1 X98.886 Y104.157 E2.82267
G1 X97.848 Y103.727 E2.85571
G1 X96.957 Y103.043 E2.88875
G1 X96.273 Y102.152 E2.92179
G1 X95.843 Y101.114 E2.95483
G1 X95.696 Y100.000 E2.98787
G1 X95.843 Y98.886 E3.02091
G1 X96.273 Y97.848 E3.05395
G1 X96.909 Y97.019 E3.08467
G1 F1800.000 E2.08467
G92 E0
G1 X86.293 Y86.293 F7800.000
G1 F1800.000 E1.00000
G1 X113.707 Y86.293 F1800.000 E1.80613
G1 X113.707 Y113.707 E2.61225
G1 X86.293 Y113.707 E3.41838
G1 X86.293 Y86.372 E4.22219
G1 X85.778 Y85.778 F7800.000
G1 X114.222 Y85.778 F1800.000 E5.05861
G1 X114.222 Y114.222 E5.89503
G1 X85.778 Y114.222 E6.73146
G1 X85.778 Y85.856 E7.56556
G1 X85.263 Y85.262 F7800.000
G1 X114.738 Y85.262 F1800.000 E8.43229
G1 X114.738 Y114.737 E9.29901
G1 X85.263 Y114.737 E10.16573
G1 X85.263 Y85.341 E11.03014
G1 X86.660 Y87.290 F7800.000
G1 X87.290 Y86.660 F3600.000 E11.05666
G1 X88.024 Y86.660 F7800.000
G1 X86.660 Y88.024 F3600.000 E11.11404
G1 X86.660 Y88.758 F7800.000
G1 X88.758 Y86.660 F3600.000 E11.20228
G1 X89.492 Y86.660 F7800.000
G1 X86.660 Y89.492 F3600.000 E11.32138
G1 X86.660 Y90.226 F7800.000
G1 X90.226 Y86.660 F3600.000 E11.47133
G1 X90.959 Y86.660 F7800.000
G1 X86.660 Y90.959 F3600.000 E11.65214
G1 X86.660 Y91.693 F7800.000
G1 X91.693 Y86.660 F3600.000 E11.86380
G1 X92.427 Y86.660 F7800.000
G1 X86.660 Y92.427 F3600.000 E12.10632
G1 X86.660 Y93.161 F7800.000
G1 X93.161 Y86.660 F3600.000 E12.37970
G1 X93.895 Y86.660 F7800.000
G1 X86.660 Y93.895 F3600.000 E12.68394
G1 X86.660 Y94.628 F7800.000
G1 X94.628 Y86.660 F3600.000 E13.01903
G1 X95.362 Y86.660 F7800.000
G1 X86.660 Y95.362 F3600.000 E13.38498
G1 X86.660 Y96.096 F7800.000
G1 X96.096 Y86.660 F3600.000 E13.78178
G1 X96.830 Y86.660 F7800.000
G1 X86.660 Y96.830 F3600.000 E14.20945
G1 X86.660 Y97.564 F7800.000
G1 X97.564 Y86.660 F3600.000 E14.66797
G1 X98.297 Y86.660 F7800.000
G1 X86.660 Y98.297 F3600.000 E15.15734
G1 X86.660 Y99.031 F7800.000
G1 X99.031 Y86.660 F3600.000 E15.67757
G1 X99.765 Y86.660 F7800.000
G1 X86.660 Y99.765 F3600.000 E16.22866
G1 X86.660 Y100.499 F7800.000
