; generated by Slic3r 0.7.2b on 2014-02-20 at 01:45:40

; layer_height = 0.4
; perimeters = 3
; solid_layers = 3
; fill_density = 0.4
; nozzle_diameter = 0.5
; filament_diameter = 3
; extrusion_multiplier = 1
; perimeter_speed = 30
; infill_speed = 60
; travel_speed = 130
; extrusion_width_ratio = 0
; scale = 1
; single wall width = 0.53mm

M104 S200 ; set temperature
G28 ; home all axes
M109 S200 ; wait for temperature to be reached
G90 ; use absolute coordinates
G21 ; set units to millimeters
G92 E0 ; reset extrusion distance
M82 ; use absolute distances for extrusion
G1 Z0.400 F7800.000
G1 X-12.989 Y-26.904
G1 F1800.000 E1.00000
G1 X-12.739 Y-26.914 F540.000 E1.00736
G1 X13.241 Y-26.894 E1.77131
G1 X13.991 Y-26.784 E1.79360
G1 X14.491 Y-26.654 E1.80879
G1 X14.971 Y-26.484 E1.82376
G1 X15.431 Y-26.274 E1.83863
G1 X15.661 Y-26.154 E1.84626
G1 X15.881 Y-26.024 E1.85377
G1 X16.501 Y-25.584 E1.87613
G1 X16.881 Y-25.244 E1.89112
G1 X17.061 Y-25.064 E1.89861
G1 X17.401 Y-24.684 E1.91360
G1 X17.841 Y-24.064 E1.93596
G1 X17.971 Y-23.844 E1.94347
G1 X18.201 Y-23.384 E1.95860
G1 X18.391 Y-22.914 E1.97350
G1 X18.541 Y-22.424 E1.98857
G1 X18.601 Y-22.174 E1.99613
G1 X18.711 Y-21.424 E2.01842
G1 X18.721 Y12.396 E3.01291
G1 X18.661 Y13.206 E3.03679
G1 X18.521 Y14.026 E3.06126
G1 X14.391 Y27.736 E3.48230
G1 X14.201 Y28.206 E3.49720
G1 X13.851 Y28.886 E3.51969
G1 X13.561 Y29.306 E3.53470
G1 X13.241 Y29.706 E3.54976
G1 X13.071 Y29.896 E3.55726
G1 X12.891 Y30.076 E3.56475
G1 X12.511 Y30.406 E3.57955
G1 X12.101 Y30.716 E3.59466
G1 X11.441 Y31.106 E3.61720
G1 X10.971 Y31.316 E3.63234
G1 X10.491 Y31.486 E3.64731
G1 X10.241 Y31.556 E3.65495
G1 X9.491 Y31.696 E3.67738
G1 X9.241 Y31.726 E3.68479
G1 X8.731 Y31.746 E3.69979
G1 X-9.249 Y31.726 E4.22850
G1 X-9.759 Y31.656 E4.24364
G1 X-10.249 Y31.556 E4.25835
G1 X-10.739 Y31.406 E4.27341
G1 X-11.219 Y31.216 E4.28859
G1 X-11.449 Y31.106 E4.29609
G1 X-12.109 Y30.716 E4.31863
G1 X-12.519 Y30.406 E4.33375
G1 X-12.899 Y30.076 E4.34855
G1 X-13.079 Y29.896 E4.35603
G1 X-13.249 Y29.706 E4.36353
G1 X-13.569 Y29.306 E4.37859
G1 X-13.859 Y28.886 E4.39360
G1 X-14.209 Y28.206 E4.41609
G1 X-14.399 Y27.736 E4.43100
G1 X-18.409 Y14.496 E4.83779
G1 X-18.539 Y13.926 E4.85498
G1 X-18.669 Y13.096 E4.87968
G1 X-18.739 Y11.996 E4.91210
G1 X-18.719 Y-21.424 E5.89482
G1 X-18.609 Y-22.174 E5.91711
G1 X-18.479 Y-22.674 E5.93230
G1 X-18.309 Y-23.154 E5.94728
G1 X-18.099 Y-23.614 E5.96215
G1 X-17.979 Y-23.844 E5.96977
G1 X-17.849 Y-24.064 E5.97729
G1 X-17.409 Y-24.684 E5.99964
G1 X-17.069 Y-25.064 E6.01464
G1 X-16.889 Y-25.244 E6.02212
G1 X-16.509 Y-25.584 E6.03712
G1 X-15.889 Y-26.024 E6.05947
G1 X-15.669 Y-26.154 E6.06699
G1 X-15.209 Y-26.384 E6.08211
G1 X-14.739 Y-26.574 E6.09702
G1 X-14.249 Y-26.724 E6.11209
G1 X-13.999 Y-26.784 E6.11965
G1 X-13.249 Y-26.894 E6.14194
G1 X-13.068 Y-26.901 E6.14727
G1 F1800.000 E5.14727
G92 E0
G1 X-7.997 Y8.398 F7800.000
G1 F1800.000 E1.00000
G1 X-7.159 Y8.565 F540.000 E1.02511
G1 X-6.445 Y9.037 E1.05028
G1 X-5.974 Y9.752 E1.07549
G1 X-5.813 Y10.562 E1.09976
G1 X-5.813 Y11.614 E1.13069
G1 X-5.974 Y12.423 E1.15496
G1 X-6.445 Y13.141 E1.18022
G1 X-7.159 Y13.613 E1.20538
G1 X-7.997 Y13.782 E1.23051
G1 X-8.837 Y13.613 E1.25572
G1 X-9.546 Y13.141 E1.28076
G1 X-10.024 Y12.424 E1.30611
G1 X-10.184 Y11.614 E1.33040
G1 X-10.184 Y10.562 E1.36130
G1 X-10.024 Y9.752 E1.38560
G1 X-9.546 Y9.037 E1.41090
G1 X-8.837 Y8.565 E1.43595
G1 X-8.074 Y8.414 E1.45881
G1 X-7.997 Y7.873 F7800.000
G1 X-6.960 Y8.079 F540.000 E1.48991
G1 X-6.073 Y8.665 E1.52115
G1 X-5.488 Y9.553 E1.55242
G1 X-5.297 Y10.511 E1.58116
G1 X-5.297 Y11.665 E1.61507
G1 X-5.488 Y12.622 E1.64378
G1 X-6.073 Y13.513 E1.67511
G1 X-6.959 Y14.098 E1.70634
G1 X-7.997 Y14.307 E1.73747
G1 X-9.038 Y14.098 E1.76871
G1 X-9.918 Y13.513 E1.79977
G1 X-10.510 Y12.624 E1.83119
G1 X-10.699 Y11.664 E1.85997
G1 X-10.699 Y10.512 E1.89382
G1 X-10.510 Y9.551 E1.92262
G1 X-9.917 Y8.665 E1.95399
G1 X-9.037 Y8.079 E1.98506
G1 X-8.074 Y7.888 E2.01394
G1 F1800.000 E1.01394
G92 E0
G1 X-4.764 Y2.762 F7800.000
G1 F1800.000 E1.00000
G1 X-4.764 Y-11.583 F540.000 E1.42183
G1 X4.763 Y-11.583 E1.70197
G1 X4.763 Y2.762 E2.12380
G1 X-4.685 Y2.762 E2.40163
G1 X-5.279 Y3.277 F7800.000
G1 X-5.279 Y-12.099 F540.000 E2.85376
G1 X5.279 Y-12.099 E3.16420
G1 X5.279 Y3.277 E3.61633
G1 X-5.200 Y3.277 E3.92446
G1 X-5.794 Y3.792 F7800.000
G1 X-5.794 Y-12.614 F540.000 E4.40688
G1 X5.794 Y-12.614 E4.74762
G1 X5.794 Y3.792 E5.23005
G1 X-5.715 Y3.792 E5.56847
G1 F1800.000 E4.56847
G92 E0
G1 X5.976 Y9.752 F7800.000
G1 F1800.000 E1.00000
G1 X6.452 Y9.037 F540.000 E1.02526
G1 X7.161 Y8.565 E1.05031
G1 X8.001 Y8.398 E1.07550
G1 X8.839 Y8.565 E1.10061
G1 X9.552 Y9.037 E1.12577
G1 X10.026 Y9.752 E1.15100
G1 X10.189 Y10.562 E1.17529
G1 X10.189 Y11.614 E1.20624
G1 X10.026 Y12.424 E1.23053
G1 X9.553 Y13.141 E1.25581
G1 X8.839 Y13.613 E1.28096
G1 X8.001 Y13.782 E1.30610
G1 X7.161 Y13.613 E1.33130
G1 X6.452 Y13.141 E1.35635
G1 X5.976 Y12.424 E1.38166
G1 X5.814 Y11.614 E1.40595
G1 X5.814 Y10.562 E1.43688
G1 X5.960 Y9.829 E1.45886
G1 X5.490 Y9.551 F7800.000
G1 X6.080 Y8.665 F540.000 E1.49016
G1 X6.961 Y8.079 E1.52126
G1 X8.001 Y7.873 E1.55245
G1 X9.038 Y8.079 E1.58354
G1 X9.924 Y8.665 E1.61476
G1 X10.511 Y9.551 E1.64604
G1 X10.705 Y10.510 E1.67481
G1 X10.705 Y11.666 E1.70878
G1 X10.511 Y12.624 E1.73753
G1 X9.924 Y13.513 E1.76886
G1 X9.039 Y14.098 E1.80006
G1 X8.001 Y14.307 E1.83120
G1 X6.960 Y14.098 E1.86243
G1 X6.080 Y13.513 E1.89352
G1 X5.490 Y12.624 E1.92487
G1 X5.299 Y11.665 E1.95364
G1 X5.299 Y10.511 E1.98755
G1 X5.475 Y9.629 E2.01402
G1 X5.005 Y9.351 F7800.000
G1 X4.784 Y10.461 F540.000 E2.04730
G1 X4.784 Y11.715 E2.08419
G1 X5.005 Y12.824 E2.11744
G1 X5.708 Y13.884 E2.15483
G1 X6.759 Y14.584 E2.19196
G1 X7.872 Y14.807 E2.22535
G1 X7.706 Y14.820 E2.23024
G1 X7.706 Y24.721 E2.52139
G1 X-7.706 Y24.721 E2.97459
G1 X-7.706 Y14.820 E3.26573
G1 X-7.870 Y14.807 E3.27056
G1 X-6.759 Y14.584 E3.30390
G1 X-5.700 Y13.884 E3.34120
G1 X-5.002 Y12.821 E3.37859
G1 X-4.782 Y11.715 E3.41175
G1 X-4.782 Y10.461 E3.44865
G1 X-5.002 Y9.354 E3.48184
G1 X-5.701 Y8.294 E3.51917
G1 X-6.760 Y7.593 E3.55650
G1 X-7.997 Y7.348 E3.59357
G1 X-9.238 Y7.594 E3.63077
G1 X-10.288 Y8.293 E3.66788
G1 X-10.996 Y9.351 E3.70531
G1 X-11.214 Y10.462 E3.73862
G1 X-11.214 Y11.714 E3.77541
G1 X-10.996 Y12.824 E3.80869
G1 X-10.289 Y13.885 E3.84617
G1 X-9.239 Y14.584 E3.88326
G1 X-8.292 Y14.774 E3.91167
G1 X-9.422 Y14.683 E3.94502
G1 X-9.835 Y14.585 E3.95749
G1 X-10.226 Y14.421 E3.96996
G1 X-10.586 Y14.202 E3.98236
G1 X-10.911 Y13.924 E3.99492
G1 X-11.185 Y13.604 E4.00731
G1 X-11.406 Y13.241 E4.01981
G1 X-11.570 Y12.850 E4.03229
G1 X-11.668 Y12.437 E4.04476
G1 X-11.706 Y11.962 E4.05876
G1 X-11.706 Y-19.879 E4.99507
G1 X11.706 Y-19.879 E5.68352
G1 X11.706 Y11.967 E6.61994
G1 X11.671 Y12.439 E6.63388
G1 X11.572 Y12.852 E6.64635
G1 X11.411 Y13.243 E6.65879
G1 X11.189 Y13.604 E6.67125
G1 X10.916 Y13.925 E6.68366
G1 X10.593 Y14.201 E6.69614
G1 X10.231 Y14.420 E6.70857
G1 X9.837 Y14.585 E6.72112
G1 X9.424 Y14.683 E6.73361
G1 X8.299 Y14.773 E6.76680
G1 X9.239 Y14.584 E6.79499
G1 X10.296 Y13.885 E6.83225
G1 X10.997 Y12.824 E6.86962
G1 X11.220 Y11.717 E6.90284
G1 X11.220 Y10.459 E6.93983
G1 X10.996 Y9.351 E6.97307
G1 X10.296 Y8.293 E7.01039
G1 X9.238 Y7.593 E7.04767
G1 X8.001 Y7.348 E7.08475
G1 X6.760 Y7.594 E7.12195
G1 X5.709 Y8.294 E7.15910
G1 X5.049 Y9.285 E7.19413
G1 F1800.000 E6.19413
G92 E0
G1 X8.221 Y15.296 F7800.000
G1 F1800.000 E1.00000
G1 X8.221 Y25.236 F540.000 E1.29230
G1 X-8.221 Y25.236 E1.77581
G1 X-8.221 Y15.296 E2.06811
G1 X-9.503 Y15.194 E2.10592
G1 X-9.995 Y15.076 E2.12079
G1 X-10.461 Y14.881 E2.13563
G1 X-10.889 Y14.620 E2.15039
G1 X-11.276 Y14.290 E2.16534
G1 X-11.603 Y13.908 E2.18014
G1 X-11.866 Y13.476 E2.19501
G1 X-12.061 Y13.010 E2.20986
G1 X-12.179 Y12.518 E2.22473
G1 X-12.221 Y11.983 E2.24051
G1 X-12.221 Y-20.394 E3.19257
G1 X12.221 Y-20.394 E3.91132
G1 X12.221 Y11.985 E4.86344
G1 X12.182 Y12.519 E4.87918
G1 X12.063 Y13.011 E4.89406
G1 X11.871 Y13.477 E4.90887
G1 X11.608 Y13.908 E4.92373
G1 X11.281 Y14.291 E4.93852
G1 X10.896 Y14.620 E4.95343
G1 X10.466 Y14.881 E4.96822
G1 X9.997 Y15.076 E4.98314
G1 X9.505 Y15.194 E4.99802
G1 X8.300 Y15.290 E5.03358
G1 X8.737 Y15.772 F7800.000
G1 X8.737 Y25.752 F540.000 E5.32704
G1 X-8.737 Y25.752 E5.84084
G1 X-8.737 Y15.772 E6.13430
G1 X-9.584 Y15.704 E6.15930
G1 X-10.155 Y15.568 E6.17657
G1 X-10.695 Y15.342 E6.19379
G1 X-11.192 Y15.039 E6.21090
G1 X-11.641 Y14.656 E6.22825
G1 X-12.022 Y14.211 E6.24545
G1 X-12.326 Y13.710 E6.26270
G1 X-12.553 Y13.170 E6.27991
G1 X-12.689 Y12.599 E6.29719
G1 X-12.737 Y12.004 E6.31475
G1 X-12.737 Y-20.909 E7.28256
G1 X-12.441 Y-20.909 E7.29126
G1 X12.737 Y-20.909 E8.03160
G1 X12.737 Y12.004 E8.99943
G1 X12.693 Y12.599 E9.01697
G1 X12.555 Y13.171 E9.03426
G1 X12.332 Y13.711 E9.05143
G1 X12.026 Y14.211 E9.06869
G1 X11.647 Y14.656 E9.08587
G1 X11.199 Y15.039 E9.10320
G1 X10.700 Y15.341 E9.12036
G1 X10.157 Y15.568 E9.13764
G1 X9.586 Y15.704 E9.15492
G1 X8.815 Y15.765 E9.17766
G1 X7.340 Y15.787 F7800.000
G1 X6.488 Y14.936 F1080.000 E9.21313
G1 X7.339 Y16.517 F7800.000
G1 X-5.018 Y4.159 F1080.000 E9.72823
G1 X-5.748 Y4.159 F7800.000
G1 X7.340 Y17.246 F1080.000 E10.27374
G1 X7.339 Y17.976 F7800.000
G1 X-11.339 Y-0.703 F1080.000 E11.05232
G1 X-11.339 Y0.027 F7800.000
G1 X7.340 Y18.706 F1080.000 E11.83090
G1 X7.339 Y19.435 F7800.000
G1 X-11.339 Y0.756 F1080.000 E12.60948
G1 X-11.339 Y1.486 F7800.000
G1 X7.340 Y20.165 F1080.000 E13.38806
G1 X7.339 Y20.895 F7800.000
G1 X-4.889 Y8.666 F1080.000 E13.89778
G1 X-4.513 Y9.772 F7800.000
G1 X7.340 Y21.624 F1080.000 E14.39180
G1 X7.339 Y22.354 F7800.000
G1 X-4.415 Y10.599 F1080.000 E14.88177
G1 X-4.416 Y11.329 F7800.000
G1 X7.339 Y23.084 F1080.000 E15.37175
G1 X7.339 Y23.813 F7800.000
G1 X-4.489 Y11.985 F1080.000 E15.86477
G1 X-4.610 Y12.594 F7800.000
G1 X7.151 Y24.354 F1080.000 E16.35497
G1 X6.421 Y24.354 F7800.000
G1 X-4.822 Y13.111 F1080.000 E16.82362
G1 X-5.112 Y13.551 F7800.000
G1 X5.692 Y24.354 F1080.000 E17.27392
G1 X4.962 Y24.354 F7800.000
G1 X-5.401 Y13.992 F1080.000 E17.70586
G1 X-5.801 Y14.321 F7800.000
G1 X4.232 Y24.354 F1080.000 E18.12406
G1 X3.503 Y24.354 F7800.000
G1 X-6.240 Y14.612 F1080.000 E18.53016
G1 X-6.679 Y14.902 F7800.000
G1 X2.773 Y24.354 F1080.000 E18.92415
G1 X2.043 Y24.354 F7800.000
G1 X-7.276 Y15.035 F1080.000 E19.31261
G1 X-7.339 Y15.701 F7800.000
G1 X1.314 Y24.354 F1080.000 E19.67328
G1 X0.584 Y24.354 F7800.000
G1 X-7.339 Y16.431 F1080.000 E20.00355
G1 X-7.339 Y17.161 F7800.000
G1 X-0.146 Y24.354 F1080.000 E20.30340
G1 X-0.875 Y24.354 F7800.000
G1 X-7.339 Y17.890 F1080.000 E20.57283
G1 X-7.339 Y18.620 F7800.000
G1 X-1.605 Y24.354 F1080.000 E20.81185
G1 X-2.335 Y24.354 F7800.000
G1 X-7.340 Y19.350 F1080.000 E21.02046
G1 X-7.339 Y20.079 F7800.000
G1 X-3.064 Y24.354 F1080.000 E21.19865
G1 X-3.794 Y24.354 F7800.000
G1 X-7.339 Y20.809 F1080.000 E21.34643
G1 X-7.339 Y21.539 F7800.000
G1 X-4.524 Y24.354 F1080.000 E21.46379
G1 X-5.253 Y24.354 F7800.000
G1 X-7.339 Y22.269 F1080.000 E21.55074
G1 X-7.339 Y22.998 F7800.000
G1 X-5.983 Y24.354 F1080.000 E21.60727
G1 X-6.713 Y24.354 F7800.000
G1 X-7.339 Y23.728 F1080.000 E21.63339
G1 F1800.000 E20.63339
G92 E0
G1 X-10.836 Y8.556 F7800.000
G1 F1800.000 E1.00000
G1 X-11.339 Y8.053 F1080.000 E1.02097
G1 X-11.339 Y7.323 F7800.000
G1 X-10.544 Y8.119 F1080.000 E1.05413
G1 X-10.122 Y7.811 F7800.000
G1 X-11.339 Y6.594 F1080.000 E1.10486
G1 X-11.339 Y5.864 F7800.000
G1 X-9.684 Y7.519 F1080.000 E1.17385
G1 X-9.229 Y7.245 F7800.000
G1 X-11.339 Y5.134 F1080.000 E1.26180
G1 X-11.339 Y4.405 F7800.000
G1 X-8.620 Y7.124 F1080.000 E1.37515
G1 X-8.011 Y7.004 F7800.000
G1 X-11.339 Y3.675 F1080.000 E1.51388
G1 X-11.339 Y2.945 F7800.000
G1 X-7.181 Y7.104 F1080.000 E1.68721
G1 X-6.079 Y7.477 F7800.000
G1 X-11.339 Y2.216 F1080.000 E1.90649
G1 X-11.339 Y-1.433 F7800.000
G1 X-6.161 Y3.746 F1080.000 E2.12236
G1 X-6.161 Y3.017 F7800.000
G1 X-11.339 Y-2.162 F1080.000 E2.33823
G1 X-11.339 Y-2.892 F7800.000
G1 X-6.161 Y2.287 F1080.000 E2.55410
G1 X-6.161 Y1.557 F7800.000
G1 X-11.339 Y-3.622 F1080.000 E2.76997
G1 X-11.339 Y-4.351 F7800.000
G1 X-6.161 Y0.828 F1080.000 E2.98583
G1 X-6.161 Y0.098 F7800.000
G1 X-11.339 Y-5.081 F1080.000 E3.20170
G1 X-11.339 Y-5.811 F7800.000
G1 X-6.161 Y-0.632 F1080.000 E3.41757
G1 X-6.161 Y-1.361 F7800.000
G1 X-11.339 Y-6.540 F1080.000 E3.63344
G1 X-11.339 Y-7.270 F7800.000
G1 X-6.161 Y-2.091 F1080.000 E3.84931
G1 X-6.161 Y-2.821 F7800.000
G1 X-11.339 Y-8.000 F1080.000 E4.06518
G1 X-11.339 Y-8.729 F7800.000
G1 X-6.161 Y-3.550 F1080.000 E4.28106
G1 X-6.161 Y-4.280 F7800.000
G1 X-11.339 Y-9.459 F1080.000 E4.49692
G1 X-11.339 Y-10.189 F7800.000
G1 X-6.161 Y-5.010 F1080.000 E4.71279
G1 X-6.161 Y-5.739 F7800.000
G1 X-11.339 Y-10.918 F1080.000 E4.92866
G1 X-11.339 Y-11.648 F7800.000
G1 X-6.161 Y-6.469 F1080.000 E5.14453
G1 X-6.161 Y-7.199 F7800.000
G1 X-11.339 Y-12.378 F1080.000 E5.36040
G1 X-11.339 Y-13.107 F7800.000
G1 X-6.161 Y-7.928 F1080.000 E5.57627
G1 X-6.161 Y-8.658 F7800.000
G1 X-11.339 Y-13.837 F1080.000 E5.79214
G1 X-11.339 Y-14.567 F7800.000
G1 X-6.161 Y-9.388 F1080.000 E6.00801
G1 X-6.161 Y-10.117 F7800.000
G1 X-11.339 Y-15.296 F1080.000 E6.22388
G1 X-11.339 Y-16.026 F7800.000
G1 X-6.161 Y-10.847 F1080.000 E6.43975
G1 X-6.161 Y-11.577 F7800.000
G1 X-11.339 Y-16.756 F1080.000 E6.65562
G1 X-11.339 Y-17.485 F7800.000
G1 X-6.161 Y-12.306 F1080.000 E6.87149
G1 X-6.105 Y-12.980 F7800.000
G1 X-11.339 Y-18.215 F1080.000 E7.08967
G1 X-11.339 Y-18.945 F7800.000
G1 X-5.375 Y-12.981 F1080.000 E7.33828
G1 X-4.645 Y-12.981 F7800.000
G1 X-11.177 Y-19.513 F1080.000 E7.61054
G1 X-10.447 Y-19.513 F7800.000
G1 X-3.916 Y-12.981 F1080.000 E7.88280
G1 X-3.186 Y-12.981 F7800.000
G1 X-9.718 Y-19.513 F1080.000 E8.15507
G1 X-8.989 Y-19.512 F7800.000
G1 X-2.457 Y-12.980 F1080.000 E8.42733
G1 X-1.727 Y-12.980 F7800.000
G1 X-8.259 Y-19.512 F1080.000 E8.69959
G1 X-7.529 Y-19.512 F7800.000
G1 X-0.997 Y-12.980 F1080.000 E8.97185
G1 X-0.268 Y-12.980 F7800.000
G1 X-6.800 Y-19.512 F1080.000 E9.24411
G1 X-6.070 Y-19.512 F7800.000
G1 X0.462 Y-12.980 F1080.000 E9.51638
G1 X1.192 Y-12.980 F7800.000
G1 X-5.340 Y-19.512 F1080.000 E9.78863
G1 X-4.611 Y-19.512 F7800.000
G1 X1.921 Y-12.980 F1080.000 E10.06090
G1 X2.651 Y-12.980 F7800.000
G1 X-3.881 Y-19.512 F1080.000 E10.33315
G1 X-3.151 Y-19.512 F7800.000
G1 X3.381 Y-12.980 F1080.000 E10.60542
G1 X4.110 Y-12.980 F7800.000
G1 X-2.421 Y-19.512 F1080.000 E10.87767
G1 X-1.692 Y-19.512 F7800.000
G1 X4.840 Y-12.980 F1080.000 E11.14993
G1 X5.570 Y-12.980 F7800.000
G1 X-0.962 Y-19.512 F1080.000 E11.42219
G1 X-0.232 Y-19.512 F7800.000
G1 X6.299 Y-12.980 F1080.000 E11.69445
G1 X6.161 Y-13.119 F7800.000
G1 X11.340 Y-7.940 F1080.000 E11.91032
G1 X11.339 Y-7.211 F7800.000
G1 X6.161 Y-12.390 F1080.000 E12.12619
G1 X6.161 Y-11.660 F7800.000
G1 X11.339 Y-6.481 F1080.000 E12.34206
G1 X11.339 Y-5.751 F7800.000
G1 X6.160 Y-10.930 F1080.000 E12.55793
G1 X6.160 Y-10.201 F7800.000
G1 X11.339 Y-5.022 F1080.000 E12.77380
G1 X11.339 Y-4.292 F7800.000
G1 X6.160 Y-9.471 F1080.000 E12.98967
G1 X6.160 Y-8.741 F7800.000
G1 X11.339 Y-3.562 F1080.000 E13.20554
G1 X11.339 Y-2.832 F7800.000
G1 X6.160 Y-8.011 F1080.000 E13.42141
G1 X6.160 Y-7.282 F7800.000
G1 X11.339 Y-2.103 F1080.000 E13.63728
G1 X11.339 Y-1.373 F7800.000
G1 X6.160 Y-6.552 F1080.000 E13.85315
G1 X6.160 Y-5.822 F7800.000
G1 X11.339 Y-0.643 F1080.000 E14.06902
G1 X11.339 Y0.086 F7800.000
G1 X6.160 Y-5.093 F1080.000 E14.28489
G1 X6.160 Y-4.363 F7800.000
G1 X11.339 Y0.816 F1080.000 E14.50076
G1 X11.340 Y1.545 F7800.000
G1 X6.161 Y-3.634 F1080.000 E14.71663
G1 X6.161 Y-2.904 F7800.000
G1 X11.340 Y2.275 F1080.000 E14.93250
G1 X11.340 Y3.004 F7800.000
G1 X6.161 Y-2.175 F1080.000 E15.14837
G1 X6.161 Y-1.445 F7800.000
G1 X11.340 Y3.734 F1080.000 E15.36424
G1 X11.339 Y4.464 F7800.000
G1 X6.161 Y-0.715 F1080.000 E15.58011
G1 X6.160 Y0.015 F7800.000
G1 X11.339 Y5.194 F1080.000 E15.79598
G1 X11.339 Y5.923 F7800.000
G1 X6.161 Y0.744 F1080.000 E16.01185
G1 X6.160 Y1.474 F7800.000
