; generated by Slic3r 0.7.2b on 2014-03-01 at 19:18:13

; layer_height = 0.4
; perimeters = 3
; solid_layers = 3
; fill_density = 0.4
; nozzle_diameter = 0.5
; filament_diameter = 3
; extrusion_multiplier = 1
; perimeter_speed = 30
; infill_speed = 60
; travel_speed = 130
; extrusion_width_ratio = 0
; scale = 1
; single wall width = 0.53mm

M104 S200 ; set temperature
G28 ; home all axes
M109 S200 ; wait for temperature to be reached
G90 ; use absolute coordinates
G21 ; set units to millimeters
G92 E0 ; reset extrusion distance
M82 ; use absolute distances for extrusion
G1 Z0.400 F7800.000
G1 X-19.070 Y-18.890
G1 F1800.000 E1.00000
G1 X-18.890 Y-19.070 F540.000 E1.00749
G1 X-18.510 Y-19.410 E1.02248
G1 X-17.890 Y-19.850 E1.04483
G1 X-17.670 Y-19.980 E1.05235
G1 X-17.210 Y-20.210 E1.06747
G1 X-16.740 Y-20.400 E1.08238
G1 X-16.250 Y-20.550 E1.09745
G1 X-16.000 Y-20.610 E1.10501
G1 X-15.250 Y-20.720 E1.12730
G1 X-14.740 Y-20.740 E1.14231
G1 X15.240 Y-20.720 E2.02388
G1 X15.990 Y-20.610 E2.04617
G1 X16.490 Y-20.480 E2.06136
G1 X16.970 Y-20.310 E2.07633
G1 X17.430 Y-20.100 E2.09120
G1 X17.660 Y-19.980 E2.09883
G1 X17.880 Y-19.850 E2.10634
G1 X18.500 Y-19.410 E2.12870
G1 X18.880 Y-19.070 E2.14369
G1 X19.060 Y-18.890 E2.15118
G1 X19.400 Y-18.510 E2.16617
G1 X19.840 Y-17.890 E2.18853
G1 X19.970 Y-17.670 E2.19604
G1 X20.200 Y-17.210 E2.21117
G1 X20.390 Y-16.740 E2.22607
G1 X20.540 Y-16.250 E2.24114
G1 X20.600 Y-16.000 E2.24870
G1 X20.710 Y-15.250 E2.27099
G1 X20.710 Y15.240 E3.16756
G1 X20.600 Y15.990 E3.18985
G1 X20.470 Y16.490 E3.20504
G1 X20.300 Y16.970 E3.22002
G1 X20.090 Y17.430 E3.23489
G1 X19.970 Y17.660 E3.24251
G1 X19.840 Y17.880 E3.25003
G1 X19.400 Y18.500 E3.27238
G1 X19.060 Y18.880 E3.28738
G1 X18.880 Y19.060 E3.29486
G1 X18.500 Y19.400 E3.30986
G1 X17.880 Y19.840 E3.33221
G1 X17.660 Y19.970 E3.33973
G1 X17.200 Y20.200 E3.35485
G1 X16.730 Y20.390 E3.36976
G1 X16.240 Y20.540 E3.38483
G1 X15.990 Y20.600 E3.39239
G1 X15.240 Y20.710 E3.41468
G1 X14.730 Y20.730 E3.42968
G1 X-15.250 Y20.710 E4.31126
G1 X-16.000 Y20.600 E4.33355
G1 X-16.500 Y20.470 E4.34874
G1 X-16.980 Y20.300 E4.36371
G1 X-17.440 Y20.090 E4.37858
G1 X-17.670 Y19.970 E4.38621
G1 X-17.890 Y19.840 E4.39372
G1 X-18.510 Y19.400 E4.41608
G1 X-18.890 Y19.060 E4.43107
G1 X-19.070 Y18.880 E4.43856
G1 X-19.410 Y18.500 E4.45355
G1 X-19.850 Y17.880 E4.47591
G1 X-19.980 Y17.660 E4.48342
G1 X-20.210 Y17.200 E4.49854
G1 X-20.400 Y16.730 E4.51345
G1 X-20.550 Y16.240 E4.52852
G1 X-20.610 Y15.990 E4.53608
G1 X-20.720 Y15.240 E4.55837
G1 X-20.720 Y-15.250 E5.45494
G1 X-20.610 Y-16.000 E5.47723
G1 X-20.480 Y-16.500 E5.49242
G1 X-20.310 Y-16.980 E5.50739
G1 X-20.100 Y-17.440 E5.52226
G1 X-19.980 Y-17.670 E5.52989
G1 X-19.850 Y-17.890 E5.53741
G1 X-19.410 Y-18.510 E5.55976
G1 X-19.123 Y-18.831 E5.57244
G1 F1800.000 E4.57244
G92 E0
G1 X-2.309 Y-2.309 F7800.000
G1 F1800.000 E1.00000
G1 X-1.632 Y-2.827 F540.000 E1.02506
G1 X-0.845 Y-3.154 E1.05012
G1 X0.000 Y-3.265 E1.07518
G1 X0.845 Y-3.154 E1.10025
G1 X1.632 Y-2.827 E1.12531
G1 X2.309 Y-2.309 E1.15037
G1 X2.827 Y-1.632 E1.17543
G1 X3.154 Y-0.845 E1.20049
G1 X3.265 Y-0.000 E1.22555
G1 X3.154 Y0.845 E1.25061
G1 X2.827 Y1.632 E1.27568
G1 X2.309 Y2.309 E1.30074
G1 X1.632 Y2.827 E1.32580
G1 X0.845 Y3.154 E1.35086
G1 X0.000 Y3.265 E1.37592
G1 X-0.845 Y3.154 E1.40098
G1 X-1.632 Y2.827 E1.42604
G1 X-2.309 Y2.309 E1.45111
G1 X-2.827 Y1.632 E1.47617
G1 X-3.154 Y0.845 E1.50123
G1 X-3.265 Y-0.000 E1.52629
G1 X-3.154 Y-0.845 E1.55135
G1 X-2.827 Y-1.632 E1.57641
G1 X-2.356 Y-2.246 E1.59916
G1 X-2.676 Y-2.676 F7800.000
G1 X-1.892 Y-3.277 F540.000 E1.62821
G1 X-0.979 Y-3.655 E1.65726
G1 X0.000 Y-3.784 E1.68631
G1 X0.979 Y-3.655 E1.71536
G1 X1.892 Y-3.277 E1.74441
G1 X2.676 Y-2.676 E1.77346
G1 X3.277 Y-1.892 E1.80251
G1 X3.655 Y-0.979 E1.83156
G1 X3.784 Y-0.000 E1.86061
G1 X3.655 Y0.979 E1.88966
G1 X3.277 Y1.892 E1.91871
G1 X2.676 Y2.676 E1.94776
G1 X1.892 Y3.277 E1.97681
G1 X0.979 Y3.655 E2.00586
G1 X0.000 Y3.784 E2.03491
G1 X-0.979 Y3.655 E2.06396
G1 X-1.892 Y3.277 E2.09301
G1 X-2.676 Y2.676 E2.12206
G1 X-3.277 Y1.892 E2.15111
G1 X-3.655 Y0.979 E2.18016
G1 X-3.784 Y-0.000 E2.20921
G1 X-3.655 Y-0.979 E2.23826
G1 X-3.277 Y-1.892 E2.26731
G1 X-2.724 Y-2.613 E2.29405
G1 X-3.043 Y-3.043 F7800.000
G1 X-2.152 Y-3.727 F540.000 E2.32709
G1 X-1.114 Y-4.157 E2.36013
G1 X0.000 Y-4.304 E2.39317
G1 X1.114 Y-4.157 E2.42620
G1 X2.152 Y-3.727 E2.45924
G1 X3.043 Y-3.043 E2.49228
G1 X3.727 Y-2.152 E2.52532
G1 X4.157 Y-1.114 E2.55836
G1 X4.304 Y-0.000 E2.59140
G1 X4.157 Y1.114 E2.62444
G1 X3.727 Y2.152 E2.65748
G1 X3.043 Y3.043 E2.69052
G1 X2.152 Y3.727 E2.72356
G1 X1.114 Y4.157 E2.75660
G1 X0.000 Y4.304 E2.78963
G1 X-1.114 Y4.157 E2.82267
G1 X-2.152 Y3.727 E2.85571
G1 X-3.043 Y3.043 E2.88875
G1 X-3.727 Y2.152 E2.92179
G1 X-4.157 Y1.114 E2.95483
G1 X-4.304 Y-0.000 E2.98787
G1 X-4.157 Y-1.114 E3.02091
G1 X-3.727 Y-2.152 E3.05395
G1 X-3.091 Y-2.981 E3.08467
G1 F1800.000 E2.08467
G92 E0
G1 X-13.707 Y-13.707 F7800.000
G1 F1800.000 E1.00000
G1 X13.707 Y-13.707 F540.000 E1.80613
G1 X13.707 Y13.707 E2.61225
G1 X-13.707 Y13.707 E3.41838
G1 X-13.707 Y-13.628 E4.22219
G1 X-14.222 Y-14.222 F7800.000
G1 X14.222 Y-14.222 F540.000 E5.05861
G1 X14.222 Y14.222 E5.89503
G1 X-14.222 Y14.222 E6.73146
G1 X-14.222 Y-14.144 E7.56556
G1 X-14.738 Y-14.738 F7800.000
G1 X14.738 Y-14.738 F540.000 E8.43229
G1 X14.738 Y14.737 E9.29901
G1 X-14.738 Y14.737 E10.16573
G1 X-14.738 Y-14.659 E11.03014
G1 X-13.340 Y-12.974 F7800.000
G1 X-3.422 Y-3.055 F1080.000 E11.44722
G1 X-3.055 Y-3.422 F7800.000
G1 X-12.974 Y-13.340 F1080.000 E11.86431
G1 X-12.240 Y-13.340 F7800.000
G1 X-2.640 Y-3.740 F1080.000 E12.26800
G1 X-2.215 Y-4.049 F7800.000
G1 X-11.506 Y-13.340 F1080.000 E12.65870
G1 X-10.772 Y-13.340 F7800.000
G1 X-1.696 Y-4.264 F1080.000 E13.04037
G1 X-1.177 Y-4.479 F7800.000
G1 X-10.038 Y-13.340 F1080.000 E13.41300
G1 X-9.305 Y-13.340 F7800.000
G1 X-0.548 Y-4.583 F1080.000 E13.78123
G1 X0.101 Y-4.669 F7800.000
G1 X-8.571 Y-13.340 F1080.000 E14.14587
G1 X-7.837 Y-13.340 F7800.000
G1 X0.931 Y-4.572 F1080.000 E14.51458
G1 X1.960 Y-4.278 F7800.000
G1 X-7.103 Y-13.340 F1080.000 E14.89567
G1 X-6.369 Y-13.340 F7800.000
G1 X13.340 Y6.369 F1080.000 E15.72447
G1 X13.340 Y5.636 F7800.000
G1 X-5.635 Y-13.340 F1080.000 E16.52241
G1 X-4.902 Y-13.340 F7800.000
G1 X13.340 Y4.902 F1080.000 E17.28950
G1 X13.340 Y4.168 F7800.000
G1 X-4.168 Y-13.340 F1080.000 E18.02573
G1 X-3.434 Y-13.340 F7800.000
G1 X13.340 Y3.434 F1080.000 E18.73110
G1 X13.340 Y2.700 F7800.000
G1 X-2.700 Y-13.340 F1080.000 E19.40562
G1 X-1.966 Y-13.340 F7800.000
G1 X13.340 Y1.966 F1080.000 E20.04927
G1 X13.340 Y1.233 F7800.000
G1 X-1.233 Y-13.340 F1080.000 E20.66207
G1 X-0.499 Y-13.340 F7800.000
G1 X13.340 Y0.499 F1080.000 E21.24402
G1 X13.340 Y-0.235 F7800.000
G1 X0.235 Y-13.340 F1080.000 E21.79511
G1 X0.969 Y-13.340 F7800.000
G1 X13.340 Y-0.969 F1080.000 E22.31534
G1 X13.340 Y-1.703 F7800.000
G1 X1.703 Y-13.340 F1080.000 E22.80472
G1 X2.436 Y-13.340 F7800.000
G1 X13.340 Y-2.436 F1080.000 E23.26323
G1 X13.340 Y-3.170 F7800.000
G1 X3.170 Y-13.340 F1080.000 E23.69090
G1 X3.904 Y-13.340 F7800.000
G1 X13.340 Y-3.904 F1080.000 E24.08770
G1 X13.340 Y-4.638 F7800.000
G1 X4.638 Y-13.340 F1080.000 E24.45365
G1 X5.372 Y-13.340 F7800.000
G1 X13.340 Y-5.372 F1080.000 E24.78874
G1 X13.340 Y-6.105 F7800.000
G1 X6.105 Y-13.340 F1080.000 E25.09298
G1 X6.839 Y-13.340 F7800.000
G1 X13.340 Y-6.839 F1080.000 E25.36636
G1 X13.340 Y-7.573 F7800.000
G1 X7.573 Y-13.340 F1080.000 E25.60888
G1 X8.307 Y-13.340 F7800.000
G1 X13.340 Y-8.307 F1080.000 E25.82054
G1 X13.340 Y-9.041 F7800.000
G1 X9.041 Y-13.340 F1080.000 E26.00135
G1 X9.774 Y-13.340 F7800.000
G1 X13.340 Y-9.774 F1080.000 E26.15131
G1 X13.340 Y-10.508 F7800.000
G1 X10.508 Y-13.340 F1080.000 E26.27040
G1 X11.242 Y-13.340 F7800.000
G1 X13.340 Y-11.242 F1080.000 E26.35864
G1 X13.340 Y-11.976 F7800.000
G1 X11.976 Y-13.340 F1080.000 E26.41602
G1 X12.710 Y-13.340 F7800.000
G1 X13.340 Y-12.710 F1080.000 E26.44254
G1 F1800.000 E25.44254
G92 E0
G1 X4.278 Y-1.960 F7800.000
G1 F1800.000 E1.00000
G1 X13.340 Y7.103 F1080.000 E1.38109
G1 X13.340 Y7.837 F7800.000
G1 X4.572 Y-0.931 F1080.000 E1.74980
G1 X4.669 Y-0.101 F7800.000
G1 X13.340 Y8.571 F1080.000 E2.11444
G1 X13.340 Y9.305 F7800.000
G1 X4.583 Y0.548 F1080.000 E2.48267
G1 X4.479 Y1.177 F7800.000
G1 X13.340 Y10.038 F1080.000 E2.85530
G1 X13.340 Y10.772 F7800.000
G1 X4.264 Y1.696 F1080.000 E3.23697
G1 X4.049 Y2.215 F7800.000
G1 X13.340 Y11.506 F1080.000 E3.62768
G1 X13.340 Y12.240 F7800.000
G1 X3.740 Y2.640 F1080.000 E4.03137
G1 X3.422 Y3.055 F7800.000
G1 X13.340 Y12.974 F1080.000 E4.44845
G1 X12.974 Y13.340 F7800.000
G1 X3.055 Y3.422 F1080.000 E4.86554
G1 X2.640 Y3.740 F7800.000
G1 X12.240 Y13.340 F1080.000 E5.26923
G1 X11.506 Y13.340 F7800.000
G1 X2.215 Y4.049 F1080.000 E5.65993
G1 X1.696 Y4.264 F7800.000
G1 X10.772 Y13.340 F1080.000 E6.04160
G1 X10.038 Y13.340 F7800.000
G1 X1.177 Y4.479 F1080.000 E6.41423
G1 X0.548 Y4.583 F7800.000
G1 X9.305 Y13.340 F1080.000 E6.78246
G1 X8.571 Y13.340 F7800.000
G1 X-0.101 Y4.669 F1080.000 E7.14710
G1 X-0.931 Y4.572 F7800.000
G1 X7.837 Y13.340 F1080.000 E7.51581
G1 X7.103 Y13.340 F7800.000
G1 X-1.960 Y4.278 F1080.000 E7.89690
G1 X-4.278 Y1.960 F7800.000
G1 X-13.340 Y-7.103 F1080.000 E8.27800
G1 X-13.340 Y-6.369 F7800.000
G1 X6.369 Y13.340 F1080.000 E9.10679
G1 X5.636 Y13.340 F7800.000
G1 X-13.340 Y-5.635 F1080.000 E9.90473
G1 X-13.340 Y-4.902 F7800.000
G1 X4.902 Y13.340 F1080.000 E10.67182
G1 X4.168 Y13.340 F7800.000
G1 X-13.340 Y-4.168 F1080.000 E11.40805
G1 X-13.340 Y-3.434 F7800.000
G1 X3.434 Y13.340 F1080.000 E12.11342
G1 X2.700 Y13.340 F7800.000
G1 X-13.340 Y-2.700 F1080.000 E12.78794
G1 X-13.340 Y-1.966 F7800.000
G1 X1.966 Y13.340 F1080.000 E13.43160
G1 X1.233 Y13.340 F7800.000
G1 X-13.340 Y-1.233 F1080.000 E14.04440
G1 X-13.340 Y-0.499 F7800.000
G1 X0.499 Y13.340 F1080.000 E14.62634
G1 X-0.235 Y13.340 F7800.000
G1 X-13.340 Y0.235 F1080.000 E15.17743
G1 X-13.340 Y0.969 F7800.000
G1 X-0.969 Y13.340 F1080.000 E15.69766
G1 X-1.703 Y13.340 F7800.000
G1 X-13.340 Y1.703 F1080.000 E16.18704
G1 X-13.340 Y2.436 F7800.000
G1 X-2.436 Y13.340 F1080.000 E16.64556
G1 X-3.170 Y13.340 F7800.000
G1 X-13.340 Y3.170 F1080.000 E17.07322
G1 X-13.340 Y3.904 F7800.000
G1 X-3.904 Y13.340 F1080.000 E17.47003
G1 X-4.638 Y13.340 F7800.000
G1 X-13.340 Y4.638 F1080.000 E17.83597
G1 X-13.340 Y5.372 F7800.000
G1 X-5.372 Y13.340 F1080.000 E18.17106
G1 X-6.105 Y13.340 F7800.000
G1 X-13.340 Y6.105 F1080.000 E18.47530
G1 X-13.340 Y6.839 F7800.000
G1 X-6.839 Y13.340 F1080.000 E18.74868
G1 X-7.573 Y13.340 F7800.000
G1 X-13.340 Y7.573 F1080.000 E18.99120
G1 X-13.340 Y8.307 F7800.000
G1 X-8.307 Y13.340 F1080.000 E19.20287
G1 X-9.041 Y13.340 F7800.000
G1 X-13.340 Y9.041 F1080.000 E19.38367
G1 X-13.340 Y9.774 F7800.000
G1 X-9.774 Y13.340 F1080.000 E19.53363
G1 X-10.508 Y13.340 F7800.000
G1 X-13.340 Y10.508 F1080.000 E19.65272
G1 X-13.340 Y11.242 F7800.000
G1 X-11.242 Y13.340 F1080.000 E19.74096
G1 X-11.976 Y13.340 F7800.000
G1 X-13.340 Y11.976 F1080.000 E19.79834
G1 X-13.340 Y12.710 F7800.000
G1 X-12.710 Y13.340 F1080.000 E19.82487
G1 F1800.000 E18.82487
G92 E0
G1 X-4.572 Y0.931 F7800.000
G1 F1800.000 E1.00000
G1 X-13.340 Y-7.837 F1080.000 E1.36871
G1 X-13.340 Y-8.571 F7800.000
G1 X-4.669 Y0.101 F1080.000 E1.73335
G1 X-4.583 Y-0.548 F7800.000
G1 X-13.340 Y-9.305 F1080.000 E2.10158
G1 X-13.340 Y-10.038 F7800.000
G1 X-4.479 Y-1.177 F1080.000 E2.47421
G1 X-4.264 Y-1.696 F7800.000
G1 X-13.340 Y-10.772 F1080.000 E2.85588
G1 X-13.340 Y-11.506 F7800.000
G1 X-4.049 Y-2.215 F1080.000 E3.24658
G1 X-3.740 Y-2.640 F7800.000
G1 X-13.340 Y-12.240 F1080.000 E3.65027
G1 F1800.000 E2.65027
G92 E0
G1 Z0.800 F7800.000
G1 X-2.309 Y-2.309
G1 F1800.000 E1.00000
G1 X-1.632 Y-2.827 F1800.000 E1.02506
G1 X-0.845 Y-3.154 E1.05012
G1 X0.000 Y-3.265 E1.07518
G1 X0.845 Y-3.154 E1.10025
G1 X1.632 Y-2.827 E1.12531
G1 X2.309 Y-2.309 E1.15037
G1 X2.827 Y-1.632 E1.17543
G1 X3.154 Y-0.845 E1.20049
G1 X3.265 Y-0.000 E1.22555
G1 X3.154 Y0.845 E1.25061
G1 X2.827 Y1.632 E1.27568
G1 X2.309 Y2.309 E1.30074
G1 X1.632 Y2.827 E1.32580
G1 X0.845 Y3.154 E1.35086
G1 X0.000 Y3.265 E1.37592
G1 X-0.845 Y3.154 E1.40098
G1 X-1.632 Y2.827 E1.42604
G1 X-2.309 Y2.309 E1.45111
G1 X-2.827 Y1.632 E1.47617
G1 X-3.154 Y0.845 E1.50123
G1 X-3.265 Y-0.000 E1.52629
G1 X-3.154 Y-0.845 E1.55135
G1 X-2.827 Y-1.632 E1.57641
G1 X-2.356 Y-2.246 E1.59916
G1 X-2.676 Y-2.676 F7800.000
G1 X-1.892 Y-3.277 F1800.000 E1.62821
G1 X-0.979 Y-3.655 E1.65726
G1 X0.000 Y-3.784 E1.68631
G1 X0.979 Y-3.655 E1.71536
G1 X1.892 Y-3.277 E1.74441
G1 X2.676 Y-2.676 E1.77346
G1 X3.277 Y-1.892 E1.80251
G1 X3.655 Y-0.979 E1.83156
G1 X3.784 Y-0.000 E1.86061
G1 X3.655 Y0.979 E1.88966
G1 X3.277 Y1.892 E1.91871
G1 X2.676 Y2.676 E1.94776
G1 X1.892 Y3.277 E1.97681
G1 X0.979 Y3.655 E2.00586
G1 X0.000 Y3.784 E2.03491
G1 X-0.979 Y3.655 E2.06396
G1 X-1.892 Y3.277 E2.09301
G1 X-2.676 Y2.676 E2.12206
G1 X-3.277 Y1.892 E2.15111
G1 X-3.655 Y0.979 E2.18016
G1 X-3.784 Y-0.000 E2.20921
G1 X-3.655 Y-0.979 E2.23826
G1 X-3.277 Y-1.892 E2.26731
G1 X-2.724 Y-2.613 E2.29405
G1 X-3.043 Y-3.043 F7800.000
G1 X-2.152 Y-3.727 F1800.000 E2.32709
G1 X-1.114 Y-4.157 E2.36013
G1 X0.000 Y-4.304 E2.39317
G1 X1.114 Y-4.157 E2.42620
G1 X2.152 Y-3.727 E2.45924
G1 X3.043 Y-3.043 E2.49228
G1 X3.727 Y-2.152 E2.52532
G1 X4.157 Y-1.114 E2.55836
G1 X4.304 Y-0.000 E2.59140
G1 X4.157 Y1.114 E2.62444
G1 X3.727 Y2.152 E2.65748
G1 X3.043 Y3.043 E2.69052
G1 X2.152 Y3.727 E2.72356
G1 X1.114 Y4.157 E2.75660
G1 X0.000 Y4.304 E2.78963
G1 X-1.114 Y4.157 E2.82267
G1 X-2.152 Y3.727 E2.85571
G1 X-3.043 Y3.043 E2.88875
G1 X-3.727 Y2.152 E2.92179
G1 X-4.157 Y1.114 E2.95483
G1 X-4.304 Y-0.000 E2.98787
G1 X-4.157 Y-1.114 E3.02091
G1 X-3.727 Y-2.152 E3.05395
G1 X-3.091 Y-2.981 E3.08467
G1 F1800.000 E2.08467
G92 E0
G1 X-13.707 Y-13.707 F7800.000
G1 F1800.000 E1.00000
G1 X13.707 Y-13.707 F1800.000 E1.80613
G1 X13.707 Y13.707 E2.61225
G1 X-13.707 Y13.707 E3.41838
G1 X-13.707 Y-13.628 E4.22219
G1 X-14.222 Y-14.222 F7800.000
G1 X14.222 Y-14.222 F1800.000 E5.05861
G1 X14.222 Y14.222 E5.89503
G1 X-14.222 Y14.222 E6.73146
G1 X-14.222 Y-14.144 E7.56556
G1 X-14.738 Y-14.738 F7800.000
G1 X14.738 Y-14.738 F1800.000 E8.43229
G1 X14.738 Y14.737 E9.29901
G1 X-14.738 Y14.737 E10.16573
G1 X-14.738 Y-14.659 E11.03014
G1 X-13.340 Y-12.710 F7800.000
G1 X-12.710 Y-13.340 F3600.000 E11.05666
G1 X-11.976 Y-13.340 F7800.000
G1 X-13.340 Y-11.976 F3600.000 E11.11404
G1 X-13.340 Y-11.242 F7800.000
G1 X-11.242 Y-13.340 F3600.000 E11.20228
G1 X-10.508 Y-13.340 F7800.000
G1 X-13.340 Y-10.508 F3600.000 E11.32138
G1 X-13.340 Y-9.774 F7800.000
G1 X-9.774 Y-13.340 F3600.000 E11.47133
G1 X-9.041 Y-13.340 F7800.000
G1 X-13.340 Y-9.041 F3600.000 E11.65214
G1 X-13.340 Y-8.307 F7800.000
G1 X-8.307 Y-13.340 F3600.000 E11.86380
G1 X-7.573 Y-13.340 F7800.000
G1 X-13.340 Y-7.573 F3600.000 E12.10632
G1 X-13.340 Y-6.839 F7800.000
G1 X-6.839 Y-13.340 F3600.000 E12.37970
G1 X-6.105 Y-13.340 F7800.000
G1 X-13.340 Y-6.105 F3600.000 E12.68394
G1 X-13.340 Y-5.372 F7800.000
G1 X-5.372 Y-13.340 F3600.000 E13.01903
G1 X-4.638 Y-13.340 F7800.000
G1 X-13.340 Y-4.638 F3600.000 E13.38498
G1 X-13.340 Y-3.904 F7800.000
G1 X-3.904 Y-13.340 F3600.000 E13.78178
G1 X-3.170 Y-13.340 F7800.000
G1 X-13.340 Y-3.170 F3600.000 E14.20945
G1 X-13.340 Y-2.436 F7800.000
G1 X-2.436 Y-13.340 F3600.000 E14.66797
G1 X-1.703 Y-13.340 F7800.000
G1 X-13.340 Y-1.703 F3600.000 E15.15734
G1 X-13.340 Y-0.969 F7800.000
G1 X-0.969 Y-13.340 F3600.000 E15.67757
G1 X-0.235 Y-13.340 F7800.000
G1 X-13.340 Y-0.235 F3600.000 E16.22866
G1 X-13.340 Y0.499 F7800.000
G1 X0.499 Y-13.340 F3600.000 E16.81061
G1 X1.233 Y-13.340 F7800.000
G1 X-13.340 Y1.233 F3600.000 E17.42341
G1 X-13.340 Y1.966 F7800.000
G1 X1.966 Y-13.340 F3600.000 E18.06707
G1 X2.700 Y-13.340 F7800.000
G1 X-13.340 Y2.700 F3600.000 E18.74158
G1 X-13.340 Y3.434 F7800.000
G1 X3.434 Y-13.340 F3600.000 E19.44695
G1 X4.168 Y-13.340 F7800.000
G1 X-13.340 Y4.168 F3600.000 E20.18319
G1 X-13.340 Y4.902 F7800.000
